(node-first-test-cut)
(T5 D=6.35 CR=0 - ZMIN=-19 - flat end mill)
G90 G94
G17
G21
(-Attention- Property Safe Retracts is set to Clearance Height.)
(Ensure the clearance height will clear the part and or fixtures.)
(Raise the Z-axis to a safe height before starting the program.)
(When using Fusion 360 for Personal Use, the feedrate of)
(rapid moves is reduced to match the feedrate of cutting)
(moves, which can increase machining time. Unrestricted rapid)
(moves are available with a Fusion 360 Subscription.)

(2D Contour2)
T5 M6
S5000 M3
G17 G90 G94
G54
G0 X71.773 Y-48.449
Z0.2
G1 Z0.1 F400
Z-1.365 F50
X71.77 Y-48.442 Z-1.464 F400
X71.761 Y-48.42 Z-1.561
X71.746 Y-48.385 Z-1.653
X71.726 Y-48.337 Z-1.738
X71.701 Y-48.278 Z-1.814
X71.671 Y-48.208 Z-1.879
X71.638 Y-48.13 Z-1.931
X71.603 Y-48.045 Z-1.969
X71.565 Y-47.955 Z-1.992
X71.527 Y-47.864 Z-2
X71.281 Y-47.278
G3 X70.449 Y-46.939 I-0.585 J-0.246
G2 X59.948 Y-35.028 I-3.247 J7.722
G1 X65.47 Y-25.464
G3 X63.902 Y-22.75 I-1.567 J0.905
G1 X54.938
G2 X51.899 Y-20.493 I0 J3.175
G1 X51.881 Y-20.457
X51.853 Y-20.428
X51.817 Y-20.409
X51.777 Y-20.403
X51.738 Y-20.409
X51.702 Y-20.428
X51.674 Y-20.457
X51.656 Y-20.493
G2 X48.617 Y-22.75 I-3.039 J0.918
G1 X39.653
G3 X38.085 Y-25.464 I0 J-1.81
G1 X43.607 Y-35.028
G2 X33.106 Y-46.939 I-7.255 J-4.189
X3.841 Y-7.315 I18.672 J44.409
X7 Y-3.825 I3.159 J0.315
G1 X96.555
G2 X99.714 Y-7.315 I0 J-3.175
X70.449 Y-46.939 I-47.937 J4.786
G3 X70.11 Y-47.771 I0.246 J-0.585
G1 X70.356 Y-48.356
X70.394 Y-48.448 Z-1.992
X70.432 Y-48.537 Z-1.969
X70.468 Y-48.622 Z-1.931
X70.501 Y-48.7 Z-1.879
X70.53 Y-48.77 Z-1.814
X70.555 Y-48.83 Z-1.738
X70.575 Y-48.878 Z-1.653
X70.59 Y-48.913 Z-1.561
X70.599 Y-48.934 Z-1.464
X70.602 Y-48.941 Z-1.365
X71.773 Y-48.449
Z-3.365 F50
X71.77 Y-48.442 Z-3.464 F400
X71.761 Y-48.42 Z-3.561
X71.746 Y-48.385 Z-3.653
X71.726 Y-48.337 Z-3.738
X71.701 Y-48.278 Z-3.814
X71.671 Y-48.208 Z-3.879
X71.638 Y-48.13 Z-3.931
X71.603 Y-48.045 Z-3.969
X71.565 Y-47.955 Z-3.992
X71.527 Y-47.864 Z-4
X71.281 Y-47.278
G3 X70.449 Y-46.939 I-0.585 J-0.246
G2 X59.948 Y-35.028 I-3.247 J7.722
G1 X65.47 Y-25.464
G3 X63.902 Y-22.75 I-1.567 J0.905
G1 X54.938
G2 X51.899 Y-20.493 I0 J3.175
G1 X51.881 Y-20.457
X51.853 Y-20.428
X51.817 Y-20.409
X51.777 Y-20.403
X51.738 Y-20.409
X51.702 Y-20.428
X51.674 Y-20.457
X51.656 Y-20.493
G2 X48.617 Y-22.75 I-3.039 J0.918
G1 X39.653
G3 X38.085 Y-25.464 I0 J-1.81
G1 X43.607 Y-35.028
G2 X33.106 Y-46.939 I-7.255 J-4.189
X3.841 Y-7.315 I18.672 J44.409
X7 Y-3.825 I3.159 J0.315
G1 X96.555
G2 X99.714 Y-7.315 I0 J-3.175
X70.449 Y-46.939 I-47.937 J4.786
G3 X70.11 Y-47.771 I0.246 J-0.585
G1 X70.356 Y-48.356
X70.394 Y-48.448 Z-3.992
X70.432 Y-48.537 Z-3.969
X70.468 Y-48.622 Z-3.931
X70.501 Y-48.7 Z-3.879
X70.53 Y-48.77 Z-3.814
X70.555 Y-48.83 Z-3.738
X70.575 Y-48.878 Z-3.653
X70.59 Y-48.913 Z-3.561
X70.599 Y-48.934 Z-3.464
X70.602 Y-48.941 Z-3.365
X71.773 Y-48.449
Z-5.365 F50
X71.77 Y-48.442 Z-5.464 F400
X71.761 Y-48.42 Z-5.561
X71.746 Y-48.385 Z-5.653
X71.726 Y-48.337 Z-5.738
X71.701 Y-48.278 Z-5.814
X71.671 Y-48.208 Z-5.879
X71.638 Y-48.13 Z-5.931
X71.603 Y-48.045 Z-5.969
X71.565 Y-47.955 Z-5.992
X71.527 Y-47.864 Z-6
X71.281 Y-47.278
G3 X70.449 Y-46.939 I-0.585 J-0.246
G2 X59.948 Y-35.028 I-3.247 J7.722
G1 X65.47 Y-25.464
G3 X63.902 Y-22.75 I-1.567 J0.905
G1 X54.938
G2 X51.899 Y-20.493 I0 J3.175
G1 X51.881 Y-20.457
X51.853 Y-20.428
X51.817 Y-20.409
X51.777 Y-20.403
X51.738 Y-20.409
X51.702 Y-20.428
X51.674 Y-20.457
X51.656 Y-20.493
G2 X48.617 Y-22.75 I-3.039 J0.918
G1 X39.653
G3 X38.085 Y-25.464 I0 J-1.81
G1 X43.607 Y-35.028
G2 X33.106 Y-46.939 I-7.255 J-4.189
X3.841 Y-7.315 I18.672 J44.409
X7 Y-3.825 I3.159 J0.315
G1 X96.555
G2 X99.714 Y-7.315 I0 J-3.175
X70.449 Y-46.939 I-47.937 J4.786
G3 X70.11 Y-47.771 I0.246 J-0.585
G1 X70.356 Y-48.356
X70.394 Y-48.448 Z-5.992
X70.432 Y-48.537 Z-5.969
X70.468 Y-48.622 Z-5.931
X70.501 Y-48.7 Z-5.879
X70.53 Y-48.77 Z-5.814
X70.555 Y-48.83 Z-5.738
X70.575 Y-48.878 Z-5.653
X70.59 Y-48.913 Z-5.561
X70.599 Y-48.934 Z-5.464
X70.602 Y-48.941 Z-5.365
X71.773 Y-48.449
Z-7.365 F50
X71.77 Y-48.442 Z-7.464 F400
X71.761 Y-48.42 Z-7.561
X71.746 Y-48.385 Z-7.653
X71.726 Y-48.337 Z-7.738
X71.701 Y-48.278 Z-7.814
X71.671 Y-48.208 Z-7.879
X71.638 Y-48.13 Z-7.931
X71.603 Y-48.045 Z-7.969
X71.565 Y-47.955 Z-7.992
X71.527 Y-47.864 Z-8
X71.281 Y-47.278
G3 X70.449 Y-46.939 I-0.585 J-0.246
G2 X59.948 Y-35.028 I-3.247 J7.722
G1 X65.47 Y-25.464
G3 X63.902 Y-22.75 I-1.567 J0.905
G1 X54.938
G2 X51.899 Y-20.493 I0 J3.175
G1 X51.881 Y-20.457
X51.853 Y-20.428
X51.817 Y-20.409
X51.777 Y-20.403
X51.738 Y-20.409
X51.702 Y-20.428
X51.674 Y-20.457
X51.656 Y-20.493
G2 X48.617 Y-22.75 I-3.039 J0.918
G1 X39.653
G3 X38.085 Y-25.464 I0 J-1.81
G1 X43.607 Y-35.028
G2 X33.106 Y-46.939 I-7.255 J-4.189
X3.841 Y-7.315 I18.672 J44.409
X7 Y-3.825 I3.159 J0.315
G1 X96.555
G2 X99.714 Y-7.315 I0 J-3.175
X70.449 Y-46.939 I-47.937 J4.786
G3 X70.11 Y-47.771 I0.246 J-0.585
G1 X70.356 Y-48.356
X70.394 Y-48.448 Z-7.992
X70.432 Y-48.537 Z-7.969
X70.468 Y-48.622 Z-7.931
X70.501 Y-48.7 Z-7.879
X70.53 Y-48.77 Z-7.814
X70.555 Y-48.83 Z-7.738
X70.575 Y-48.878 Z-7.653
X70.59 Y-48.913 Z-7.561
X70.599 Y-48.934 Z-7.464
X70.602 Y-48.941 Z-7.365
X71.773 Y-48.449
Z-9.365 F50
X71.77 Y-48.442 Z-9.464 F400
X71.761 Y-48.42 Z-9.561
X71.746 Y-48.385 Z-9.653
X71.726 Y-48.337 Z-9.738
X71.701 Y-48.278 Z-9.814
X71.671 Y-48.208 Z-9.879
X71.638 Y-48.13 Z-9.931
X71.603 Y-48.045 Z-9.969
X71.565 Y-47.955 Z-9.992
X71.527 Y-47.864 Z-10
X71.281 Y-47.278
G3 X70.449 Y-46.939 I-0.585 J-0.246
G2 X59.948 Y-35.028 I-3.247 J7.722
G1 X65.47 Y-25.464
G3 X63.902 Y-22.75 I-1.567 J0.905
G1 X54.938
G2 X51.899 Y-20.493 I0 J3.175
G1 X51.881 Y-20.457
X51.853 Y-20.428
X51.817 Y-20.409
X51.777 Y-20.403
X51.738 Y-20.409
X51.702 Y-20.428
X51.674 Y-20.457
X51.656 Y-20.493
G2 X48.617 Y-22.75 I-3.039 J0.918
G1 X39.653
G3 X38.085 Y-25.464 I0 J-1.81
G1 X43.607 Y-35.028
G2 X33.106 Y-46.939 I-7.255 J-4.189
X3.841 Y-7.315 I18.672 J44.409
X7 Y-3.825 I3.159 J0.315
G1 X96.555
G2 X99.714 Y-7.315 I0 J-3.175
X70.449 Y-46.939 I-47.937 J4.786
G3 X70.11 Y-47.771 I0.246 J-0.585
G1 X70.356 Y-48.356
X70.394 Y-48.448 Z-9.992
X70.432 Y-48.537 Z-9.969
X70.468 Y-48.622 Z-9.931
X70.501 Y-48.7 Z-9.879
X70.53 Y-48.77 Z-9.814
X70.555 Y-48.83 Z-9.738
X70.575 Y-48.878 Z-9.653
X70.59 Y-48.913 Z-9.561
X70.599 Y-48.934 Z-9.464
X70.602 Y-48.941 Z-9.365
X71.773 Y-48.449
Z-11.365 F50
X71.77 Y-48.442 Z-11.464 F400
X71.761 Y-48.42 Z-11.561
X71.746 Y-48.385 Z-11.653
X71.726 Y-48.337 Z-11.738
X71.701 Y-48.278 Z-11.814
X71.671 Y-48.208 Z-11.879
X71.638 Y-48.13 Z-11.931
X71.603 Y-48.045 Z-11.969
X71.565 Y-47.955 Z-11.992
X71.527 Y-47.864 Z-12
X71.281 Y-47.278
G3 X70.449 Y-46.939 I-0.585 J-0.246
G2 X59.948 Y-35.028 I-3.247 J7.722
G1 X65.47 Y-25.464
G3 X63.902 Y-22.75 I-1.567 J0.905
G1 X54.938
G2 X51.899 Y-20.493 I0 J3.175
G1 X51.881 Y-20.457
X51.853 Y-20.428
X51.817 Y-20.409
X51.777 Y-20.403
X51.738 Y-20.409
X51.702 Y-20.428
X51.674 Y-20.457
X51.656 Y-20.493
G2 X48.617 Y-22.75 I-3.039 J0.918
G1 X39.653
G3 X38.085 Y-25.464 I0 J-1.81
G1 X43.607 Y-35.028
G2 X33.106 Y-46.939 I-7.255 J-4.189
X3.841 Y-7.315 I18.672 J44.409
X7 Y-3.825 I3.159 J0.315
G1 X96.555
G2 X99.714 Y-7.315 I0 J-3.175
X70.449 Y-46.939 I-47.937 J4.786
G3 X70.11 Y-47.771 I0.246 J-0.585
G1 X70.356 Y-48.356
X70.394 Y-48.448 Z-11.992
X70.432 Y-48.537 Z-11.969
X70.468 Y-48.622 Z-11.931
X70.501 Y-48.7 Z-11.879
X70.53 Y-48.77 Z-11.814
X70.555 Y-48.83 Z-11.738
X70.575 Y-48.878 Z-11.653
X70.59 Y-48.913 Z-11.561
X70.599 Y-48.934 Z-11.464
X70.602 Y-48.941 Z-11.365
X71.773 Y-48.449
Z-13.365 F50
X71.77 Y-48.442 Z-13.464 F400
X71.761 Y-48.42 Z-13.561
X71.746 Y-48.385 Z-13.653
X71.726 Y-48.337 Z-13.738
X71.701 Y-48.278 Z-13.814
X71.671 Y-48.208 Z-13.879
X71.638 Y-48.13 Z-13.931
X71.603 Y-48.045 Z-13.969
X71.565 Y-47.955 Z-13.992
X71.527 Y-47.864 Z-14
X71.281 Y-47.278
G3 X70.449 Y-46.939 I-0.585 J-0.246
G2 X59.948 Y-35.028 I-3.247 J7.722
G1 X65.47 Y-25.464
G3 X63.902 Y-22.75 I-1.567 J0.905
G1 X54.938
G2 X51.899 Y-20.493 I0 J3.175
G1 X51.881 Y-20.457
X51.853 Y-20.428
X51.817 Y-20.409
X51.777 Y-20.403
X51.738 Y-20.409
X51.702 Y-20.428
X51.674 Y-20.457
X51.656 Y-20.493
G2 X48.617 Y-22.75 I-3.039 J0.918
G1 X39.653
G3 X38.085 Y-25.464 I0 J-1.81
G1 X43.607 Y-35.028
G2 X33.106 Y-46.939 I-7.255 J-4.189
X3.841 Y-7.315 I18.672 J44.409
X7 Y-3.825 I3.159 J0.315
G1 X96.555
G2 X99.714 Y-7.315 I0 J-3.175
X70.449 Y-46.939 I-47.937 J4.786
G3 X70.11 Y-47.771 I0.246 J-0.585
G1 X70.356 Y-48.356
X70.394 Y-48.448 Z-13.992
X70.432 Y-48.537 Z-13.969
X70.468 Y-48.622 Z-13.931
X70.501 Y-48.7 Z-13.879
X70.53 Y-48.77 Z-13.814
X70.555 Y-48.83 Z-13.738
X70.575 Y-48.878 Z-13.653
X70.59 Y-48.913 Z-13.561
X70.599 Y-48.934 Z-13.464
X70.602 Y-48.941 Z-13.365
X71.773 Y-48.449
Z-15.365 F50
X71.77 Y-48.442 Z-15.464 F400
X71.761 Y-48.42 Z-15.561
X71.746 Y-48.385 Z-15.653
X71.726 Y-48.337 Z-15.738
X71.701 Y-48.278 Z-15.814
X71.671 Y-48.208 Z-15.879
X71.638 Y-48.13 Z-15.931
X71.603 Y-48.045 Z-15.969
X71.565 Y-47.955 Z-15.992
X71.527 Y-47.864 Z-16
X71.281 Y-47.278
G3 X70.449 Y-46.939 I-0.585 J-0.246
G2 X59.948 Y-35.028 I-3.247 J7.722
G1 X65.47 Y-25.464
G3 X63.902 Y-22.75 I-1.567 J0.905
G1 X54.938
G2 X51.899 Y-20.493 I0 J3.175
G1 X51.881 Y-20.457
X51.853 Y-20.428
X51.817 Y-20.409
X51.777 Y-20.403
X51.738 Y-20.409
X51.702 Y-20.428
X51.674 Y-20.457
X51.656 Y-20.493
G2 X48.617 Y-22.75 I-3.039 J0.918
G1 X39.653
G3 X38.085 Y-25.464 I0 J-1.81
G1 X43.607 Y-35.028
G2 X33.106 Y-46.939 I-7.255 J-4.189
X3.841 Y-7.315 I18.672 J44.409
X7 Y-3.825 I3.159 J0.315
G1 X96.555
G2 X99.714 Y-7.315 I0 J-3.175
X70.449 Y-46.939 I-47.937 J4.786
G3 X70.11 Y-47.771 I0.246 J-0.585
G1 X70.356 Y-48.356
X70.394 Y-48.448 Z-15.992
X70.432 Y-48.537 Z-15.969
X70.468 Y-48.622 Z-15.931
X70.501 Y-48.7 Z-15.879
X70.53 Y-48.77 Z-15.814
X70.555 Y-48.83 Z-15.738
X70.575 Y-48.878 Z-15.653
X70.59 Y-48.913 Z-15.561
X70.599 Y-48.934 Z-15.464
X70.602 Y-48.941 Z-15.365
X71.773 Y-48.449
Z-17.365 F50
X71.77 Y-48.442 Z-17.464 F400
X71.761 Y-48.42 Z-17.561
X71.746 Y-48.385 Z-17.653
X71.726 Y-48.337 Z-17.738
X71.701 Y-48.278 Z-17.814
X71.671 Y-48.208 Z-17.879
X71.638 Y-48.13 Z-17.931
X71.603 Y-48.045 Z-17.969
X71.565 Y-47.955 Z-17.992
X71.527 Y-47.864 Z-18
X71.281 Y-47.278
G3 X70.449 Y-46.939 I-0.585 J-0.246
G2 X59.948 Y-35.028 I-3.247 J7.722
G1 X65.47 Y-25.464
G3 X63.902 Y-22.75 I-1.567 J0.905
G1 X54.938
G2 X51.899 Y-20.493 I0 J3.175
G1 X51.881 Y-20.457
X51.853 Y-20.428
X51.817 Y-20.409
X51.777 Y-20.403
X51.738 Y-20.409
X51.702 Y-20.428
X51.674 Y-20.457
X51.656 Y-20.493
G2 X48.617 Y-22.75 I-3.039 J0.918
G1 X39.653
G3 X38.085 Y-25.464 I0 J-1.81
G1 X43.607 Y-35.028
G2 X33.106 Y-46.939 I-7.255 J-4.189
X14.432 Y-32.963 I18.672 J44.409
G1 Z-17.413
G2 X7.777 Y-22.146 I37.345 J30.433
G1 Z-18 F50
G2 X3.841 Y-7.315 I44 J19.616 F400
X7 Y-3.825 I3.159 J0.315
G1 X19.627
Z-17.413
X32.327
Z-18 F50
X68.795 F400
Z-17.413
X81.495
Z-18 F50
X96.555 F400
G2 X99.714 Y-7.315 I0 J-3.175
X95.348 Y-23.083 I-47.937 J4.786
G1 Z-17.413
G2 X88.463 Y-33.754 I-43.571 J20.553
G1 Z-18 F50
G2 X70.449 Y-46.939 I-36.686 J31.225 F400
G3 X70.11 Y-47.771 I0.246 J-0.585
G1 X70.356 Y-48.356
X70.394 Y-48.448 Z-17.992
X70.432 Y-48.537 Z-17.969
X70.468 Y-48.622 Z-17.931
X70.501 Y-48.7 Z-17.879
X70.53 Y-48.77 Z-17.814
X70.555 Y-48.83 Z-17.738
X70.575 Y-48.878 Z-17.653
X70.59 Y-48.913 Z-17.561
X70.599 Y-48.934 Z-17.464
X70.602 Y-48.941 Z-17.365
X71.773 Y-48.449
Z-18.365 F50
X71.77 Y-48.442 Z-18.464 F400
X71.761 Y-48.42 Z-18.561
X71.746 Y-48.385 Z-18.653
X71.726 Y-48.337 Z-18.738
X71.701 Y-48.278 Z-18.814
X71.671 Y-48.208 Z-18.879
X71.638 Y-48.13 Z-18.931
X71.603 Y-48.045 Z-18.969
X71.565 Y-47.955 Z-18.992
X71.527 Y-47.864 Z-19
X71.281 Y-47.278
G3 X70.449 Y-46.939 I-0.585 J-0.246
G2 X59.948 Y-35.028 I-3.247 J7.722
G1 X65.47 Y-25.464
G3 X63.902 Y-22.75 I-1.567 J0.905
G1 X54.938
G2 X51.899 Y-20.493 I0 J3.175
G1 X51.881 Y-20.457
X51.853 Y-20.428
X51.817 Y-20.409
X51.777 Y-20.403
X51.738 Y-20.409
X51.702 Y-20.428
X51.674 Y-20.457
X51.656 Y-20.493
G2 X48.617 Y-22.75 I-3.039 J0.918
G1 X39.653
G3 X38.085 Y-25.464 I0 J-1.81
G1 X43.607 Y-35.028
G2 X33.106 Y-46.939 I-7.255 J-4.189
X14.432 Y-32.963 I18.672 J44.409
G1 Z-17.413
G2 X7.777 Y-22.146 I37.345 J30.433
G1 Z-19 F50
G2 X3.841 Y-7.315 I44 J19.616 F400
X7 Y-3.825 I3.159 J0.315
G1 X19.627
Z-17.413
X32.327
Z-19 F50
X68.795 F400
Z-17.413
X81.495
Z-19 F50
X96.555 F400
G2 X99.714 Y-7.315 I0 J-3.175
X95.348 Y-23.083 I-47.937 J4.786
G1 Z-17.413
G2 X88.463 Y-33.754 I-43.571 J20.553
G1 Z-19 F50
G2 X70.449 Y-46.939 I-36.686 J31.225 F400
G3 X70.11 Y-47.771 I0.246 J-0.585
G1 X70.356 Y-48.356
X70.394 Y-48.448 Z-18.992
X70.432 Y-48.537 Z-18.969
X70.468 Y-48.622 Z-18.931
X70.501 Y-48.7 Z-18.879
X70.53 Y-48.77 Z-18.814
X70.555 Y-48.83 Z-18.738
X70.575 Y-48.878 Z-18.653
X70.59 Y-48.913 Z-18.561
X70.599 Y-48.934 Z-18.464
X70.602 Y-48.941 Z-18.365
Z0.2
M5
M30
