(strut_outline)
(T5 D=6.35 CR=0 - ZMIN=0 - flat end mill)
G90 G94
G17
G21
(-Attention- Property Safe Retracts is set to Clearance Height.)
(Ensure the clearance height will clear the part and or fixtures.)
(Raise the Z-axis to a safe height before starting the program.)
(When using Fusion 360 for Personal Use, the feedrate of)
(rapid moves is reduced to match the feedrate of cutting)
(moves, which can increase machining time. Unrestricted rapid)
(moves are available with a Fusion 360 Subscription.)

(2D Contour1)
T5 M6
S5000 M3
G17 G90 G94
G54
Z23
G0 X78.447 Y-1.648
G1 Z21 F2000
Z19.1 F50
Z17.635
G19 G2 Y-2.283 Z17 J-0.635 K0 F2000
G1 Y-2.918
G17 G3 X79.082 Y-3.553 I0.635 J0
G1 X180.026
G3 X180.938 Y-3.308 I0 J1.825
G1 X190.502 Y2.214
G2 X201.265 Y-4 I3.588 J-6.214
G1 Y-13.567
G2 X199.008 Y-16.606 I-3.175 J0
G1 X198.972 Y-16.624
X198.943 Y-16.652
X198.925 Y-16.688
X198.918 Y-16.728
X198.925 Y-16.767
X198.943 Y-16.803
X198.972 Y-16.831
X199.008 Y-16.849
G2 X201.265 Y-19.888 I-0.918 J-3.039
G1 Y-29.455
G2 X190.503 Y-35.669 I-7.175 J0
G1 X180.938 Y-30.147
G3 X180.026 Y-29.903 I-0.913 J-1.58
G1 X18.064
G3 X17.152 Y-30.147 I0 J-1.825
G1 X7.588 Y-35.669
G2 X-3.175 Y-29.455 I-3.588 J6.214
G1 Y-19.888
G2 X-0.918 Y-16.849 I3.175 J0
G1 X-0.882 Y-16.831
X-0.853 Y-16.803
X-0.835 Y-16.767
X-0.828 Y-16.728
X-0.835 Y-16.688
X-0.853 Y-16.652
X-0.882 Y-16.624
X-0.918 Y-16.606
G2 X-3.175 Y-13.567 I0.918 J3.039
G1 Y-4
G2 X7.587 Y2.214 I7.175 J0
G1 X17.152 Y-3.308
G3 X18.064 Y-3.553 I0.912 J1.58
G1 X79.082
G3 X79.717 Y-2.918 I0 J0.635
G1 Y-2.283
G19 G3 Y-1.648 Z17.635 J0 K0.635
G1 X78.447
Z15.635 F50
G2 Y-2.283 Z15 J-0.635 K0 F2000
G1 Y-2.918
G17 G3 X79.082 Y-3.553 I0.635 J0
G1 X180.026
G3 X180.938 Y-3.308 I0 J1.825
G1 X190.502 Y2.214
G2 X201.265 Y-4 I3.588 J-6.214
G1 Y-13.567
G2 X199.008 Y-16.606 I-3.175 J0
G1 X198.972 Y-16.624
X198.943 Y-16.652
X198.925 Y-16.688
X198.918 Y-16.728
X198.925 Y-16.767
X198.943 Y-16.803
X198.972 Y-16.831
X199.008 Y-16.849
G2 X201.265 Y-19.888 I-0.918 J-3.039
G1 Y-29.455
G2 X190.503 Y-35.669 I-7.175 J0
G1 X180.938 Y-30.147
G3 X180.026 Y-29.903 I-0.913 J-1.58
G1 X18.064
G3 X17.152 Y-30.147 I0 J-1.825
G1 X7.588 Y-35.669
G2 X-3.175 Y-29.455 I-3.588 J6.214
G1 Y-19.888
G2 X-0.918 Y-16.849 I3.175 J0
G1 X-0.882 Y-16.831
X-0.853 Y-16.803
X-0.835 Y-16.767
X-0.828 Y-16.728
X-0.835 Y-16.688
X-0.853 Y-16.652
X-0.882 Y-16.624
X-0.918 Y-16.606
G2 X-3.175 Y-13.567 I0.918 J3.039
G1 Y-4
G2 X7.587 Y2.214 I7.175 J0
G1 X17.152 Y-3.308
G3 X18.064 Y-3.553 I0.912 J1.58
G1 X79.082
G3 X79.717 Y-2.918 I0 J0.635
G1 Y-2.283
G19 G3 Y-1.648 Z15.635 J0 K0.635
G1 X78.447
Z13.635 F50
G2 Y-2.283 Z13 J-0.635 K0 F2000
G1 Y-2.918
G17 G3 X79.082 Y-3.553 I0.635 J0
G1 X180.026
G3 X180.938 Y-3.308 I0 J1.825
G1 X190.502 Y2.214
G2 X201.265 Y-4 I3.588 J-6.214
G1 Y-13.567
G2 X199.008 Y-16.606 I-3.175 J0
G1 X198.972 Y-16.624
X198.943 Y-16.652
X198.925 Y-16.688
X198.918 Y-16.728
X198.925 Y-16.767
X198.943 Y-16.803
X198.972 Y-16.831
X199.008 Y-16.849
G2 X201.265 Y-19.888 I-0.918 J-3.039
G1 Y-29.455
G2 X190.503 Y-35.669 I-7.175 J0
G1 X180.938 Y-30.147
G3 X180.026 Y-29.903 I-0.913 J-1.58
G1 X18.064
G3 X17.152 Y-30.147 I0 J-1.825
G1 X7.588 Y-35.669
G2 X-3.175 Y-29.455 I-3.588 J6.214
G1 Y-19.888
G2 X-0.918 Y-16.849 I3.175 J0
G1 X-0.882 Y-16.831
X-0.853 Y-16.803
X-0.835 Y-16.767
X-0.828 Y-16.728
X-0.835 Y-16.688
X-0.853 Y-16.652
X-0.882 Y-16.624
X-0.918 Y-16.606
G2 X-3.175 Y-13.567 I0.918 J3.039
G1 Y-4
G2 X7.587 Y2.214 I7.175 J0
G1 X17.152 Y-3.308
G3 X18.064 Y-3.553 I0.912 J1.58
G1 X79.082
G3 X79.717 Y-2.918 I0 J0.635
G1 Y-2.283
G19 G3 Y-1.648 Z13.635 J0 K0.635
G1 X78.447
Z11.635 F50
G2 Y-2.283 Z11 J-0.635 K0 F2000
G1 Y-2.918
G17 G3 X79.082 Y-3.553 I0.635 J0
G1 X180.026
G3 X180.938 Y-3.308 I0 J1.825
G1 X190.502 Y2.214
G2 X201.265 Y-4 I3.588 J-6.214
G1 Y-13.567
G2 X199.008 Y-16.606 I-3.175 J0
G1 X198.972 Y-16.624
X198.943 Y-16.652
X198.925 Y-16.688
X198.918 Y-16.728
X198.925 Y-16.767
X198.943 Y-16.803
X198.972 Y-16.831
X199.008 Y-16.849
G2 X201.265 Y-19.888 I-0.918 J-3.039
G1 Y-29.455
G2 X190.503 Y-35.669 I-7.175 J0
G1 X180.938 Y-30.147
G3 X180.026 Y-29.903 I-0.913 J-1.58
G1 X18.064
G3 X17.152 Y-30.147 I0 J-1.825
G1 X7.588 Y-35.669
G2 X-3.175 Y-29.455 I-3.588 J6.214
G1 Y-19.888
G2 X-0.918 Y-16.849 I3.175 J0
G1 X-0.882 Y-16.831
X-0.853 Y-16.803
X-0.835 Y-16.767
X-0.828 Y-16.728
X-0.835 Y-16.688
X-0.853 Y-16.652
X-0.882 Y-16.624
X-0.918 Y-16.606
G2 X-3.175 Y-13.567 I0.918 J3.039
G1 Y-4
G2 X7.587 Y2.214 I7.175 J0
G1 X17.152 Y-3.308
G3 X18.064 Y-3.553 I0.912 J1.58
G1 X79.082
G3 X79.717 Y-2.918 I0 J0.635
G1 Y-2.283
G19 G3 Y-1.648 Z11.635 J0 K0.635
G1 X78.447
Z9.635 F50
G2 Y-2.283 Z9 J-0.635 K0 F2000
G1 Y-2.918
G17 G3 X79.082 Y-3.553 I0.635 J0
G1 X180.026
G3 X180.938 Y-3.308 I0 J1.825
G1 X190.502 Y2.214
G2 X201.265 Y-4 I3.588 J-6.214
G1 Y-13.567
G2 X199.008 Y-16.606 I-3.175 J0
G1 X198.972 Y-16.624
X198.943 Y-16.652
X198.925 Y-16.688
X198.918 Y-16.728
X198.925 Y-16.767
X198.943 Y-16.803
X198.972 Y-16.831
X199.008 Y-16.849
G2 X201.265 Y-19.888 I-0.918 J-3.039
G1 Y-29.455
G2 X190.503 Y-35.669 I-7.175 J0
G1 X180.938 Y-30.147
G3 X180.026 Y-29.903 I-0.913 J-1.58
G1 X18.064
G3 X17.152 Y-30.147 I0 J-1.825
G1 X7.588 Y-35.669
G2 X-3.175 Y-29.455 I-3.588 J6.214
G1 Y-19.888
G2 X-0.918 Y-16.849 I3.175 J0
G1 X-0.882 Y-16.831
X-0.853 Y-16.803
X-0.835 Y-16.767
X-0.828 Y-16.728
X-0.835 Y-16.688
X-0.853 Y-16.652
X-0.882 Y-16.624
X-0.918 Y-16.606
G2 X-3.175 Y-13.567 I0.918 J3.039
G1 Y-4
G2 X7.587 Y2.214 I7.175 J0
G1 X17.152 Y-3.308
G3 X18.064 Y-3.553 I0.912 J1.58
G1 X79.082
G3 X79.717 Y-2.918 I0 J0.635
G1 Y-2.283
G19 G3 Y-1.648 Z9.635 J0 K0.635
G1 X78.447
Z7.635 F50
G2 Y-2.283 Z7 J-0.635 K0 F2000
G1 Y-2.918
G17 G3 X79.082 Y-3.553 I0.635 J0
G1 X180.026
G3 X180.938 Y-3.308 I0 J1.825
G1 X190.502 Y2.214
G2 X201.265 Y-4 I3.588 J-6.214
G1 Y-13.567
G2 X199.008 Y-16.606 I-3.175 J0
G1 X198.972 Y-16.624
X198.943 Y-16.652
X198.925 Y-16.688
X198.918 Y-16.728
X198.925 Y-16.767
X198.943 Y-16.803
X198.972 Y-16.831
X199.008 Y-16.849
G2 X201.265 Y-19.888 I-0.918 J-3.039
G1 Y-29.455
G2 X190.503 Y-35.669 I-7.175 J0
G1 X180.938 Y-30.147
G3 X180.026 Y-29.903 I-0.913 J-1.58
G1 X18.064
G3 X17.152 Y-30.147 I0 J-1.825
G1 X7.588 Y-35.669
G2 X-3.175 Y-29.455 I-3.588 J6.214
G1 Y-19.888
G2 X-0.918 Y-16.849 I3.175 J0
G1 X-0.882 Y-16.831
X-0.853 Y-16.803
X-0.835 Y-16.767
X-0.828 Y-16.728
X-0.835 Y-16.688
X-0.853 Y-16.652
X-0.882 Y-16.624
X-0.918 Y-16.606
G2 X-3.175 Y-13.567 I0.918 J3.039
G1 Y-4
G2 X7.587 Y2.214 I7.175 J0
G1 X17.152 Y-3.308
G3 X18.064 Y-3.553 I0.912 J1.58
G1 X79.082
G3 X79.717 Y-2.918 I0 J0.635
G1 Y-2.283
G19 G3 Y-1.648 Z7.635 J0 K0.635
G1 X78.447
Z5.635 F50
G2 Y-2.283 Z5 J-0.635 K0 F2000
G1 Y-2.918
G17 G3 X79.082 Y-3.553 I0.635 J0
G1 X180.026
G3 X180.938 Y-3.308 I0 J1.825
G1 X190.502 Y2.214
G2 X201.265 Y-4 I3.588 J-6.214
G1 Y-13.567
G2 X199.008 Y-16.606 I-3.175 J0
G1 X198.972 Y-16.624
X198.943 Y-16.652
X198.925 Y-16.688
X198.918 Y-16.728
X198.925 Y-16.767
X198.943 Y-16.803
X198.972 Y-16.831
X199.008 Y-16.849
G2 X201.265 Y-19.888 I-0.918 J-3.039
G1 Y-29.455
G2 X190.503 Y-35.669 I-7.175 J0
G1 X180.938 Y-30.147
G3 X180.026 Y-29.903 I-0.913 J-1.58
G1 X18.064
G3 X17.152 Y-30.147 I0 J-1.825
G1 X7.588 Y-35.669
G2 X-3.175 Y-29.455 I-3.588 J6.214
G1 Y-19.888
G2 X-0.918 Y-16.849 I3.175 J0
G1 X-0.882 Y-16.831
X-0.853 Y-16.803
X-0.835 Y-16.767
X-0.828 Y-16.728
X-0.835 Y-16.688
X-0.853 Y-16.652
X-0.882 Y-16.624
X-0.918 Y-16.606
G2 X-3.175 Y-13.567 I0.918 J3.039
G1 Y-4
G2 X7.587 Y2.214 I7.175 J0
G1 X17.152 Y-3.308
G3 X18.064 Y-3.553 I0.912 J1.58
G1 X79.082
G3 X79.717 Y-2.918 I0 J0.635
G1 Y-2.283
G19 G3 Y-1.648 Z5.635 J0 K0.635
G1 X78.447
Z3.635 F50
G2 Y-2.283 Z3 J-0.635 K0 F2000
G1 Y-2.918
G17 G3 X79.082 Y-3.553 I0.635 J0
G1 X180.026
G3 X180.938 Y-3.308 I0 J1.825
G1 X190.502 Y2.214
G2 X201.265 Y-4 I3.588 J-6.214
G1 Y-13.567
G2 X199.008 Y-16.606 I-3.175 J0
G1 X198.972 Y-16.624
X198.943 Y-16.652
X198.925 Y-16.688
X198.918 Y-16.728
X198.925 Y-16.767
X198.943 Y-16.803
X198.972 Y-16.831
X199.008 Y-16.849
G2 X201.265 Y-19.888 I-0.918 J-3.039
G1 Y-29.455
G2 X190.503 Y-35.669 I-7.175 J0
G1 X180.938 Y-30.147
G3 X180.026 Y-29.903 I-0.913 J-1.58
G1 X18.064
G3 X17.152 Y-30.147 I0 J-1.825
G1 X7.588 Y-35.669
G2 X-3.175 Y-29.455 I-3.588 J6.214
G1 Y-19.888
G2 X-0.918 Y-16.849 I3.175 J0
G1 X-0.882 Y-16.831
X-0.853 Y-16.803
X-0.835 Y-16.767
X-0.828 Y-16.728
X-0.835 Y-16.688
X-0.853 Y-16.652
X-0.882 Y-16.624
X-0.918 Y-16.606
G2 X-3.175 Y-13.567 I0.918 J3.039
G1 Y-4
G2 X7.587 Y2.214 I7.175 J0
G1 X17.152 Y-3.308
G3 X18.064 Y-3.553 I0.912 J1.58
G1 X79.082
G3 X79.717 Y-2.918 I0 J0.635
G1 Y-2.283
G19 G3 Y-1.648 Z3.635 J0 K0.635
G1 X78.447
Z1.635 F50
G2 Y-2.283 Z1 J-0.635 K0 F2000
G1 Y-2.918
G17 G3 X79.082 Y-3.553 I0.635 J0
G1 X96.694
Z1.5
X109.394
Z1 F50
X180.026 F2000
G3 X180.938 Y-3.308 I0 J1.825
G1 X190.502 Y2.214
G2 X201.141 Y-2.673 I3.588 J-6.214
G1 Z1.5
G2 X201.265 Y-4 I-7.051 J-1.327
G1 Y-13.567
G2 X200.701 Y-15.373 I-3.175 J0
G1 Z1 F50
G2 X199.008 Y-16.606 I-2.611 J1.806 F2000
G1 X198.972 Y-16.624
X198.943 Y-16.652
X198.925 Y-16.688
X198.918 Y-16.728
X198.925 Y-16.767
X198.943 Y-16.803
X198.972 Y-16.831
X199.008 Y-16.849
G2 X201.208 Y-19.287 I-0.918 J-3.039
G1 Z1.5
G2 X201.265 Y-19.888 I-3.118 J-0.601
G1 Y-29.455
G2 X200.804 Y-31.987 I-7.175 J0
G1 Z1 F50
G2 X190.503 Y-35.669 I-6.714 J2.531 F2000
G1 X180.938 Y-30.147
G3 X180.026 Y-29.903 I-0.913 J-1.58
G1 X110.713
Z1.5
X98.013
Z1 F50
X18.064 F2000
G3 X17.152 Y-30.147 I0 J-1.825
G1 X7.588 Y-35.669
G2 X-2.964 Y-31.182 I-3.588 J6.214
G1 Z1.5
G2 X-3.175 Y-29.455 I6.964 J1.727
G1 Y-19.888
G2 X-2.847 Y-18.482 I3.175 J0
G1 Z1 F50
G2 X-0.918 Y-16.849 I2.847 J-1.406 F2000
G1 X-0.882 Y-16.831
X-0.853 Y-16.803
X-0.835 Y-16.767
X-0.828 Y-16.728
X-0.835 Y-16.688
X-0.853 Y-16.652
X-0.882 Y-16.624
X-0.918 Y-16.606
G2 X-3.172 Y-13.706 I0.918 J3.039
G1 Z1.5
X-3.175 Y-13.567
Y-4
G2 X-2.52 Y-1.006 I7.175 J0
G1 Z1 F50
G2 X7.587 Y2.214 I6.52 J-2.994 F2000
G1 X17.152 Y-3.308
G3 X18.064 Y-3.553 I0.912 J1.58
G1 X79.082
G3 X79.717 Y-2.918 I0 J0.635
G1 Y-2.283
G19 G3 Y-1.648 Z1.635 J0 K0.635
G1 X78.447
Z0.635 F50
G2 Y-2.283 Z0 J-0.635 K0 F2000
G1 Y-2.918
G17 G3 X79.082 Y-3.553 I0.635 J0
G1 X96.694
Z1.5
X109.394
Z0 F50
X180.026 F2000
G3 X180.938 Y-3.308 I0 J1.825
G1 X190.502 Y2.214
G2 X201.141 Y-2.673 I3.588 J-6.214
G1 Z1.5
G2 X201.265 Y-4 I-7.051 J-1.327
G1 Y-13.567
G2 X200.701 Y-15.373 I-3.175 J0
G1 Z0 F50
G2 X199.008 Y-16.606 I-2.611 J1.806 F2000
G1 X198.972 Y-16.624
X198.943 Y-16.652
X198.925 Y-16.688
X198.918 Y-16.728
X198.925 Y-16.767
X198.943 Y-16.803
X198.972 Y-16.831
X199.008 Y-16.849
G2 X201.208 Y-19.287 I-0.918 J-3.039
G1 Z1.5
G2 X201.265 Y-19.888 I-3.118 J-0.601
G1 Y-29.455
G2 X200.804 Y-31.987 I-7.175 J0
G1 Z0 F50
G2 X190.503 Y-35.669 I-6.714 J2.531 F2000
G1 X180.938 Y-30.147
G3 X180.026 Y-29.903 I-0.913 J-1.58
G1 X110.713
Z1.5
X98.013
Z0 F50
X18.064 F2000
G3 X17.152 Y-30.147 I0 J-1.825
G1 X7.588 Y-35.669
G2 X-2.964 Y-31.182 I-3.588 J6.214
G1 Z1.5
G2 X-3.175 Y-29.455 I6.964 J1.727
G1 Y-19.888
G2 X-2.847 Y-18.482 I3.175 J0
G1 Z0 F50
G2 X-0.918 Y-16.849 I2.847 J-1.406 F2000
G1 X-0.882 Y-16.831
X-0.853 Y-16.803
X-0.835 Y-16.767
X-0.828 Y-16.728
X-0.835 Y-16.688
X-0.853 Y-16.652
X-0.882 Y-16.624
X-0.918 Y-16.606
G2 X-3.172 Y-13.706 I0.918 J3.039
G1 Z1.5
X-3.175 Y-13.567
Y-4
G2 X-2.52 Y-1.006 I7.175 J0
G1 Z0 F50
G2 X7.587 Y2.214 I6.52 J-2.994 F2000
G1 X17.152 Y-3.308
G3 X18.064 Y-3.553 I0.912 J1.58
G1 X79.082
G3 X79.717 Y-2.918 I0 J0.635
G1 Y-2.283
G19 G3 Y-1.648 Z0.635 J0 K0.635
G0 Z23

G0 X202.337 Y-19.14
G1 Z18.659 F75
Z2.958
G18 G3 X201.068 Z2.926 I-0.635 K0
G1 X200.955 Z5.156
X200.823 Z7.244
X200.672 Z9.188
X200.508 Z10.961
X200.333 Z12.566
X200.152 Z13.987
X199.966 Z15.234
X199.779 Z16.31
X199.593 Z17.23
X199.412 Z17.997
X199.237 Z18.627
X199.183 Z18.8
X199.172 Z18.847
X199.168 Z18.894
X199.169 Y-19.133 Z19.009
X199.172 Y-19.112 Z19.122
X199.177 Y-19.078 Z19.232
X199.183 Y-19.032 Z19.337
X199.191 Y-18.973 Z19.435
X199.201 Y-18.902 Z19.526
X199.212 Y-18.822 Z19.607
X199.224 Y-18.732 Z19.678
X199.237 Y-18.634 Z19.738
X199.252 Y-18.531 Z19.785
X199.266 Y-18.422 Z19.819
X199.282 Y-18.31 Z19.84
X199.297 Y-18.196 Z19.847
X199.38 Y-17.586
X199.396 Y-17.473 Z19.84
X199.411 Y-17.361 Z19.819
X199.426 Y-17.252 Z19.785
X199.44 Y-17.148 Z19.738
X199.454 Y-17.05 Z19.678
X199.466 Y-16.961 Z19.607
X199.477 Y-16.88 Z19.526
X199.486 Y-16.81 Z19.435
X199.494 Y-16.751 Z19.337
X199.501 Y-16.704 Z19.232
X199.506 Y-16.67 Z19.122
X199.508 Y-16.65 Z19.009
X199.509 Y-16.643 Z18.894
Z0.613
G3 X198.876 Z0.575 I-0.318 K0
G1 X198.374 Z4.781
X196.749 Z18.795
X196.784 Y-16.328
X196.85 Y-16.047
X196.944 Y-15.799
X197.059 Y-15.574 Z18.796
X197.191 Y-15.369
X197.343 Y-15.185
X197.51 Y-15.019
X197.693 Y-14.871 Z18.797
X197.892 Y-14.74
X198.108 Y-14.629
X198.344 Y-14.54
X198.599 Y-14.474
X198.861 Y-14.415 Z18.798
X199.111 Y-14.341
X199.345 Y-14.251
X199.566 Y-14.146
X199.665 Z18.341
X199.85 Z17.368
X200.036 Z16.232
X200.221 Z14.923
X200.4 Z13.434
X200.57 Z11.775
X200.729 Z9.93
X200.873 Z7.925
X200.999 Z5.786
X201.106 Z3.439
G2 X202.375 Z3.468 I0.634 K0.029
G0 Z21
X1.346 Y-16.643
G1Z18.872
X1.342 Z18.798
X-0.588 Z2.198
X-0.786 Z0.577
G3 X-1.419 Z0.616 I-0.315 K0.039
G1 Z18.888
X-1.418 Y-16.65 Z19.003
X-1.415 Y-16.67 Z19.116
X-1.411 Y-16.704 Z19.226
X-1.404 Y-16.751 Z19.331
X-1.396 Y-16.81 Z19.429
X-1.387 Y-16.88 Z19.52
X-1.376 Y-16.961 Z19.601
X-1.364 Y-17.05 Z19.672
X-1.351 Y-17.148 Z19.732
X-1.336 Y-17.252 Z19.779
X-1.322 Y-17.361 Z19.813
X-1.306 Y-17.473 Z19.834
X-1.291 Y-17.587 Z19.841
X-1.208 Y-18.196
X-1.193 Y-18.31 Z19.834
X-1.178 Y-18.422 Z19.813
X-1.163 Y-18.53 Z19.779
X-1.149 Y-18.634 Z19.732
X-1.136 Y-18.732 Z19.672
X-1.124 Y-18.822 Z19.601
X-1.113 Y-18.902 Z19.52
X-1.103 Y-18.973 Z19.429
X-1.095 Y-19.031 Z19.331
X-1.089 Y-19.078 Z19.226
X-1.084 Y-19.112 Z19.116
X-1.081 Y-19.133 Z19.003
X-1.08 Y-19.14 Z18.888
X-1.084 Z18.843
X-1.093 Z18.799
X-1.277 Z18.17
X-1.46 Z17.426
X-1.647 Z16.531
X-1.838 Z15.468
X-2.027 Z14.232
X-2.214 Z12.813
X-2.393 Z11.21
X-2.563 Z9.416
X-2.718 Z7.456
X-2.855 Z5.331
X-2.972 Z3.069
X-2.978 Z2.921
G3 X-3.296 Z2.617 I-0.317 K0.014
G1 X-3.332
X-3.392 Y-19.138 Z2.618
X-3.452 Y-19.132
X-3.511 Y-19.123 Z2.619
X-3.569 Y-19.11 Z2.621
X-3.627 Y-19.093 Z2.622
X-3.683 Y-19.073 Z2.625
X-3.738 Y-19.049 Z2.627
X-3.791 Y-19.022 Z2.63
X-3.843 Y-18.992 Z2.633
X-3.892 Y-18.959 Z2.637
X-3.939 Y-18.922 Z2.641
X-3.984 Y-18.883 Z2.645
X-4.027 Y-18.841 Z2.65
X-4.066 Y-18.796 Z2.655
X-4.103 Y-18.749 Z2.66
X-4.136 Y-18.7 Z2.665
X-4.167 Y-18.649 Z2.671
X-4.194 Y-18.596 Z2.676
X-4.218 Y-18.541 Z2.682
X-4.238 Y-18.485 Z2.688
X-4.255 Y-18.428 Z2.695
X-4.268 Y-18.37 Z2.701
X-4.277 Y-18.311 Z2.707
X-4.283 Y-18.252 Z2.714
X-4.285 Y-18.193 Z2.72
Y-15.093 Z3.056
X-4.283 Y-15.033 Z3.063
X-4.277 Y-14.974 Z3.069
X-4.268 Y-14.915 Z3.075
X-4.255 Y-14.857 Z3.082
X-4.238 Y-14.8 Z3.088
X-4.218 Y-14.744 Z3.094
X-4.194 Y-14.69 Z3.1
X-4.167 Y-14.637 Z3.106
X-4.136 Y-14.585 Z3.111
X-4.103 Y-14.536 Z3.116
X-4.066 Y-14.489 Z3.122
X-4.027 Y-14.445 Z3.126
X-3.984 Y-14.403 Z3.131
X-3.939 Y-14.363 Z3.135
X-3.892 Y-14.327 Z3.139
X-3.843 Y-14.293 Z3.143
X-3.791 Y-14.263 Z3.146
X-3.738 Y-14.236 Z3.149
X-3.683 Y-14.212 Z3.152
X-3.627 Y-14.192 Z3.154
X-3.569 Y-14.176 Z3.156
X-3.511 Y-14.163 Z3.157
X-3.452 Y-14.153 Z3.158
X-3.392 Y-14.148 Z3.159
X-3.332 Y-14.146
G2 X-3.015 Z3.463 I0 K0.317
G1 X-2.985 Z4.181
X-2.872 Z6.472
X-2.737 Z8.619
X-2.582 Z10.632
X-2.415 Z12.443
X-2.237 Z14.069
X-2.052 Z15.508
X-1.862 Z16.768
X-1.672 Z17.85
X-1.477 Z18.796
X-1.467 Z18.859
X-1.464 Z18.924
G0Z23
G17
M5
M30