(strut_outline)
(T5 D=6.35 CR=0 - ZMIN=0 - flat end mill)
G90 G94
G17
G21
(-Attention- Property Safe Retracts is set to Clearance Height.)
(Ensure the clearance height will clear the part and or fixtures.)
(Raise the Z-axis to a safe height before starting the program.)
(When using Fusion 360 for Personal Use, the feedrate of)
(rapid moves is reduced to match the feedrate of cutting)
(moves, which can increase machining time. Unrestricted rapid)
(moves are available with a Fusion 360 Subscription.)

(2D Contour1)
T5 M6
S5000 M3
G17 G90 G94
G54
G0 X78.447 Y-1.648
Z23
G1 Z21 F2000
Z19.1 F50
Z17.635
G19 G2 Y-2.283 Z17 J-0.635 K0 F2000
G1 Y-2.918
G17 G3 X79.082 Y-3.553 I0.635 J0
G1 X180.026
G3 X180.938 Y-3.308 I0 J1.825
G1 X190.502 Y2.214
G2 X201.265 Y-4 I3.588 J-6.214
G1 Y-13.567
G2 X199.008 Y-16.606 I-3.175 J0
G1 X198.972 Y-16.624
X198.943 Y-16.652
X198.925 Y-16.688
X198.918 Y-16.728
X198.925 Y-16.767
X198.943 Y-16.803
X198.972 Y-16.831
X199.008 Y-16.849
G2 X201.265 Y-19.888 I-0.918 J-3.039
G1 Y-29.455
G2 X190.503 Y-35.669 I-7.175 J0
G1 X180.938 Y-30.147
G3 X180.026 Y-29.903 I-0.913 J-1.58
G1 X18.064
G3 X17.152 Y-30.147 I0 J-1.825
G1 X7.588 Y-35.669
G2 X-3.175 Y-29.455 I-3.588 J6.214
G1 Y-19.888
G2 X-0.918 Y-16.849 I3.175 J0
G1 X-0.882 Y-16.831
X-0.853 Y-16.803
X-0.835 Y-16.767
X-0.828 Y-16.728
X-0.835 Y-16.688
X-0.853 Y-16.652
X-0.882 Y-16.624
X-0.918 Y-16.606
G2 X-3.175 Y-13.567 I0.918 J3.039
G1 Y-4
G2 X7.587 Y2.214 I7.175 J0
G1 X17.152 Y-3.308
G3 X18.064 Y-3.553 I0.912 J1.58
G1 X79.082
G3 X79.717 Y-2.918 I0 J0.635
G1 Y-2.283
G19 G3 Y-1.648 Z17.635 J0 K0.635
G1 X78.447
Z15.635 F50
G2 Y-2.283 Z15 J-0.635 K0 F2000
G1 Y-2.918
G17 G3 X79.082 Y-3.553 I0.635 J0
G1 X180.026
G3 X180.938 Y-3.308 I0 J1.825
G1 X190.502 Y2.214
G2 X201.265 Y-4 I3.588 J-6.214
G1 Y-13.567
G2 X199.008 Y-16.606 I-3.175 J0
G1 X198.972 Y-16.624
X198.943 Y-16.652
X198.925 Y-16.688
X198.918 Y-16.728
X198.925 Y-16.767
X198.943 Y-16.803
X198.972 Y-16.831
X199.008 Y-16.849
G2 X201.265 Y-19.888 I-0.918 J-3.039
G1 Y-29.455
G2 X190.503 Y-35.669 I-7.175 J0
G1 X180.938 Y-30.147
G3 X180.026 Y-29.903 I-0.913 J-1.58
G1 X18.064
G3 X17.152 Y-30.147 I0 J-1.825
G1 X7.588 Y-35.669
G2 X-3.175 Y-29.455 I-3.588 J6.214
G1 Y-19.888
G2 X-0.918 Y-16.849 I3.175 J0
G1 X-0.882 Y-16.831
X-0.853 Y-16.803
X-0.835 Y-16.767
X-0.828 Y-16.728
X-0.835 Y-16.688
X-0.853 Y-16.652
X-0.882 Y-16.624
X-0.918 Y-16.606
G2 X-3.175 Y-13.567 I0.918 J3.039
G1 Y-4
G2 X7.587 Y2.214 I7.175 J0
G1 X17.152 Y-3.308
G3 X18.064 Y-3.553 I0.912 J1.58
G1 X79.082
G3 X79.717 Y-2.918 I0 J0.635
G1 Y-2.283
G19 G3 Y-1.648 Z15.635 J0 K0.635
G1 X78.447
Z13.635 F50
G2 Y-2.283 Z13 J-0.635 K0 F2000
G1 Y-2.918
G17 G3 X79.082 Y-3.553 I0.635 J0
G1 X180.026
G3 X180.938 Y-3.308 I0 J1.825
G1 X190.502 Y2.214
G2 X201.265 Y-4 I3.588 J-6.214
G1 Y-13.567
G2 X199.008 Y-16.606 I-3.175 J0
G1 X198.972 Y-16.624
X198.943 Y-16.652
X198.925 Y-16.688
X198.918 Y-16.728
X198.925 Y-16.767
X198.943 Y-16.803
X198.972 Y-16.831
X199.008 Y-16.849
G2 X201.265 Y-19.888 I-0.918 J-3.039
G1 Y-29.455
G2 X190.503 Y-35.669 I-7.175 J0
G1 X180.938 Y-30.147
G3 X180.026 Y-29.903 I-0.913 J-1.58
G1 X18.064
G3 X17.152 Y-30.147 I0 J-1.825
G1 X7.588 Y-35.669
G2 X-3.175 Y-29.455 I-3.588 J6.214
G1 Y-19.888
G2 X-0.918 Y-16.849 I3.175 J0
G1 X-0.882 Y-16.831
X-0.853 Y-16.803
X-0.835 Y-16.767
X-0.828 Y-16.728
X-0.835 Y-16.688
X-0.853 Y-16.652
X-0.882 Y-16.624
X-0.918 Y-16.606
G2 X-3.175 Y-13.567 I0.918 J3.039
G1 Y-4
G2 X7.587 Y2.214 I7.175 J0
G1 X17.152 Y-3.308
G3 X18.064 Y-3.553 I0.912 J1.58
G1 X79.082
G3 X79.717 Y-2.918 I0 J0.635
G1 Y-2.283
G19 G3 Y-1.648 Z13.635 J0 K0.635
G1 X78.447
Z11.635 F50
G2 Y-2.283 Z11 J-0.635 K0 F2000
G1 Y-2.918
G17 G3 X79.082 Y-3.553 I0.635 J0
G1 X180.026
G3 X180.938 Y-3.308 I0 J1.825
G1 X190.502 Y2.214
G2 X201.265 Y-4 I3.588 J-6.214
G1 Y-13.567
G2 X199.008 Y-16.606 I-3.175 J0
G1 X198.972 Y-16.624
X198.943 Y-16.652
X198.925 Y-16.688
X198.918 Y-16.728
X198.925 Y-16.767
X198.943 Y-16.803
X198.972 Y-16.831
X199.008 Y-16.849
G2 X201.265 Y-19.888 I-0.918 J-3.039
G1 Y-29.455
G2 X190.503 Y-35.669 I-7.175 J0
G1 X180.938 Y-30.147
G3 X180.026 Y-29.903 I-0.913 J-1.58
G1 X18.064
G3 X17.152 Y-30.147 I0 J-1.825
G1 X7.588 Y-35.669
G2 X-3.175 Y-29.455 I-3.588 J6.214
G1 Y-19.888
G2 X-0.918 Y-16.849 I3.175 J0
G1 X-0.882 Y-16.831
X-0.853 Y-16.803
X-0.835 Y-16.767
X-0.828 Y-16.728
X-0.835 Y-16.688
X-0.853 Y-16.652
X-0.882 Y-16.624
X-0.918 Y-16.606
G2 X-3.175 Y-13.567 I0.918 J3.039
G1 Y-4
G2 X7.587 Y2.214 I7.175 J0
G1 X17.152 Y-3.308
G3 X18.064 Y-3.553 I0.912 J1.58
G1 X79.082
G3 X79.717 Y-2.918 I0 J0.635
G1 Y-2.283
G19 G3 Y-1.648 Z11.635 J0 K0.635
G1 X78.447
Z9.635 F50
G2 Y-2.283 Z9 J-0.635 K0 F2000
G1 Y-2.918
G17 G3 X79.082 Y-3.553 I0.635 J0
G1 X180.026
G3 X180.938 Y-3.308 I0 J1.825
G1 X190.502 Y2.214
G2 X201.265 Y-4 I3.588 J-6.214
G1 Y-13.567
G2 X199.008 Y-16.606 I-3.175 J0
G1 X198.972 Y-16.624
X198.943 Y-16.652
X198.925 Y-16.688
X198.918 Y-16.728
X198.925 Y-16.767
X198.943 Y-16.803
X198.972 Y-16.831
X199.008 Y-16.849
G2 X201.265 Y-19.888 I-0.918 J-3.039
G1 Y-29.455
G2 X190.503 Y-35.669 I-7.175 J0
G1 X180.938 Y-30.147
G3 X180.026 Y-29.903 I-0.913 J-1.58
G1 X18.064
G3 X17.152 Y-30.147 I0 J-1.825
G1 X7.588 Y-35.669
G2 X-3.175 Y-29.455 I-3.588 J6.214
G1 Y-19.888
G2 X-0.918 Y-16.849 I3.175 J0
G1 X-0.882 Y-16.831
X-0.853 Y-16.803
X-0.835 Y-16.767
X-0.828 Y-16.728
X-0.835 Y-16.688
X-0.853 Y-16.652
X-0.882 Y-16.624
X-0.918 Y-16.606
G2 X-3.175 Y-13.567 I0.918 J3.039
G1 Y-4
G2 X7.587 Y2.214 I7.175 J0
G1 X17.152 Y-3.308
G3 X18.064 Y-3.553 I0.912 J1.58
G1 X79.082
G3 X79.717 Y-2.918 I0 J0.635
G1 Y-2.283
G19 G3 Y-1.648 Z9.635 J0 K0.635
G1 X78.447
Z7.635 F50
G2 Y-2.283 Z7 J-0.635 K0 F2000
G1 Y-2.918
G17 G3 X79.082 Y-3.553 I0.635 J0
G1 X180.026
G3 X180.938 Y-3.308 I0 J1.825
G1 X190.502 Y2.214
G2 X201.265 Y-4 I3.588 J-6.214
G1 Y-13.567
G2 X199.008 Y-16.606 I-3.175 J0
G1 X198.972 Y-16.624
X198.943 Y-16.652
X198.925 Y-16.688
X198.918 Y-16.728
X198.925 Y-16.767
X198.943 Y-16.803
X198.972 Y-16.831
X199.008 Y-16.849
G2 X201.265 Y-19.888 I-0.918 J-3.039
G1 Y-29.455
G2 X190.503 Y-35.669 I-7.175 J0
G1 X180.938 Y-30.147
G3 X180.026 Y-29.903 I-0.913 J-1.58
G1 X18.064
G3 X17.152 Y-30.147 I0 J-1.825
G1 X7.588 Y-35.669
G2 X-3.175 Y-29.455 I-3.588 J6.214
G1 Y-19.888
G2 X-0.918 Y-16.849 I3.175 J0
G1 X-0.882 Y-16.831
X-0.853 Y-16.803
X-0.835 Y-16.767
X-0.828 Y-16.728
X-0.835 Y-16.688
X-0.853 Y-16.652
X-0.882 Y-16.624
X-0.918 Y-16.606
G2 X-3.175 Y-13.567 I0.918 J3.039
G1 Y-4
G2 X7.587 Y2.214 I7.175 J0
G1 X17.152 Y-3.308
G3 X18.064 Y-3.553 I0.912 J1.58
G1 X79.082
G3 X79.717 Y-2.918 I0 J0.635
G1 Y-2.283
G19 G3 Y-1.648 Z7.635 J0 K0.635
G1 X78.447
Z5.635 F50
G2 Y-2.283 Z5 J-0.635 K0 F2000
G1 Y-2.918
G17 G3 X79.082 Y-3.553 I0.635 J0
G1 X180.026
G3 X180.938 Y-3.308 I0 J1.825
G1 X190.502 Y2.214
G2 X201.265 Y-4 I3.588 J-6.214
G1 Y-13.567
G2 X199.008 Y-16.606 I-3.175 J0
G1 X198.972 Y-16.624
X198.943 Y-16.652
X198.925 Y-16.688
X198.918 Y-16.728
X198.925 Y-16.767
X198.943 Y-16.803
X198.972 Y-16.831
X199.008 Y-16.849
G2 X201.265 Y-19.888 I-0.918 J-3.039
G1 Y-29.455
G2 X190.503 Y-35.669 I-7.175 J0
G1 X180.938 Y-30.147
G3 X180.026 Y-29.903 I-0.913 J-1.58
G1 X18.064
G3 X17.152 Y-30.147 I0 J-1.825
G1 X7.588 Y-35.669
G2 X-3.175 Y-29.455 I-3.588 J6.214
G1 Y-19.888
G2 X-0.918 Y-16.849 I3.175 J0
G1 X-0.882 Y-16.831
X-0.853 Y-16.803
X-0.835 Y-16.767
X-0.828 Y-16.728
X-0.835 Y-16.688
X-0.853 Y-16.652
X-0.882 Y-16.624
X-0.918 Y-16.606
G2 X-3.175 Y-13.567 I0.918 J3.039
G1 Y-4
G2 X7.587 Y2.214 I7.175 J0
G1 X17.152 Y-3.308
G3 X18.064 Y-3.553 I0.912 J1.58
G1 X79.082
G3 X79.717 Y-2.918 I0 J0.635
G1 Y-2.283
G19 G3 Y-1.648 Z5.635 J0 K0.635
G1 X78.447
Z3.635 F50
G2 Y-2.283 Z3 J-0.635 K0 F2000
G1 Y-2.918
G17 G3 X79.082 Y-3.553 I0.635 J0
G1 X180.026
G3 X180.938 Y-3.308 I0 J1.825
G1 X190.502 Y2.214
G2 X201.265 Y-4 I3.588 J-6.214
G1 Y-13.567
G2 X199.008 Y-16.606 I-3.175 J0
G1 X198.972 Y-16.624
X198.943 Y-16.652
X198.925 Y-16.688
X198.918 Y-16.728
X198.925 Y-16.767
X198.943 Y-16.803
X198.972 Y-16.831
X199.008 Y-16.849
G2 X201.265 Y-19.888 I-0.918 J-3.039
G1 Y-29.455
G2 X190.503 Y-35.669 I-7.175 J0
G1 X180.938 Y-30.147
G3 X180.026 Y-29.903 I-0.913 J-1.58
G1 X18.064
G3 X17.152 Y-30.147 I0 J-1.825
G1 X7.588 Y-35.669
G2 X-3.175 Y-29.455 I-3.588 J6.214
G1 Y-19.888
G2 X-0.918 Y-16.849 I3.175 J0
G1 X-0.882 Y-16.831
X-0.853 Y-16.803
X-0.835 Y-16.767
X-0.828 Y-16.728
X-0.835 Y-16.688
X-0.853 Y-16.652
X-0.882 Y-16.624
X-0.918 Y-16.606
G2 X-3.175 Y-13.567 I0.918 J3.039
G1 Y-4
G2 X7.587 Y2.214 I7.175 J0
G1 X17.152 Y-3.308
G3 X18.064 Y-3.553 I0.912 J1.58
G1 X79.082
G3 X79.717 Y-2.918 I0 J0.635
G1 Y-2.283
G19 G3 Y-1.648 Z3.635 J0 K0.635
G1 X78.447
Z1.635 F50
G2 Y-2.283 Z1 J-0.635 K0 F2000
G1 Y-2.918
G17 G3 X79.082 Y-3.553 I0.635 J0
G1 X96.694
Z1.5
X109.394
Z1 F50
X180.026 F2000
G3 X180.938 Y-3.308 I0 J1.825
G1 X190.502 Y2.214
G2 X201.141 Y-2.673 I3.588 J-6.214
G1 Z1.5
G2 X201.265 Y-4 I-7.051 J-1.327
G1 Y-13.567
G2 X200.701 Y-15.373 I-3.175 J0
G1 Z1 F50
G2 X199.008 Y-16.606 I-2.611 J1.806 F2000
G1 X198.972 Y-16.624
X198.943 Y-16.652
X198.925 Y-16.688
X198.918 Y-16.728
X198.925 Y-16.767
X198.943 Y-16.803
X198.972 Y-16.831
X199.008 Y-16.849
G2 X201.208 Y-19.287 I-0.918 J-3.039
G1 Z1.5
G2 X201.265 Y-19.888 I-3.118 J-0.601
G1 Y-29.455
G2 X200.804 Y-31.987 I-7.175 J0
G1 Z1 F50
G2 X190.503 Y-35.669 I-6.714 J2.531 F2000
G1 X180.938 Y-30.147
G3 X180.026 Y-29.903 I-0.913 J-1.58
G1 X110.713
Z1.5
X98.013
Z1 F50
X18.064 F2000
G3 X17.152 Y-30.147 I0 J-1.825
G1 X7.588 Y-35.669
G2 X-2.964 Y-31.182 I-3.588 J6.214
G1 Z1.5
G2 X-3.175 Y-29.455 I6.964 J1.727
G1 Y-19.888
G2 X-2.847 Y-18.482 I3.175 J0
G1 Z1 F50
G2 X-0.918 Y-16.849 I2.847 J-1.406 F2000
G1 X-0.882 Y-16.831
X-0.853 Y-16.803
X-0.835 Y-16.767
X-0.828 Y-16.728
X-0.835 Y-16.688
X-0.853 Y-16.652
X-0.882 Y-16.624
X-0.918 Y-16.606
G2 X-3.172 Y-13.706 I0.918 J3.039
G1 Z1.5
X-3.175 Y-13.567
Y-4
G2 X-2.52 Y-1.006 I7.175 J0
G1 Z1 F50
G2 X7.587 Y2.214 I6.52 J-2.994 F2000
G1 X17.152 Y-3.308
G3 X18.064 Y-3.553 I0.912 J1.58
G1 X79.082
G3 X79.717 Y-2.918 I0 J0.635
G1 Y-2.283
G19 G3 Y-1.648 Z1.635 J0 K0.635
G1 X78.447
Z0.635 F50
G2 Y-2.283 Z0 J-0.635 K0 F2000
G1 Y-2.918
G17 G3 X79.082 Y-3.553 I0.635 J0
G1 X96.694
Z1.5
X109.394
Z0 F50
X180.026 F2000
G3 X180.938 Y-3.308 I0 J1.825
G1 X190.502 Y2.214
G2 X201.141 Y-2.673 I3.588 J-6.214
G1 Z1.5
G2 X201.265 Y-4 I-7.051 J-1.327
G1 Y-13.567
G2 X200.701 Y-15.373 I-3.175 J0
G1 Z0 F50
G2 X199.008 Y-16.606 I-2.611 J1.806 F2000
G1 X198.972 Y-16.624
X198.943 Y-16.652
X198.925 Y-16.688
X198.918 Y-16.728
X198.925 Y-16.767
X198.943 Y-16.803
X198.972 Y-16.831
X199.008 Y-16.849
G2 X201.208 Y-19.287 I-0.918 J-3.039
G1 Z1.5
G2 X201.265 Y-19.888 I-3.118 J-0.601
G1 Y-29.455
G2 X200.804 Y-31.987 I-7.175 J0
G1 Z0 F50
G2 X190.503 Y-35.669 I-6.714 J2.531 F2000
G1 X180.938 Y-30.147
G3 X180.026 Y-29.903 I-0.913 J-1.58
G1 X110.713
Z1.5
X98.013
Z0 F50
X18.064 F2000
G3 X17.152 Y-30.147 I0 J-1.825
G1 X7.588 Y-35.669
G2 X-2.964 Y-31.182 I-3.588 J6.214
G1 Z1.5
G2 X-3.175 Y-29.455 I6.964 J1.727
G1 Y-19.888
G2 X-2.847 Y-18.482 I3.175 J0
G1 Z0 F50
G2 X-0.918 Y-16.849 I2.847 J-1.406 F2000
G1 X-0.882 Y-16.831
X-0.853 Y-16.803
X-0.835 Y-16.767
X-0.828 Y-16.728
X-0.835 Y-16.688
X-0.853 Y-16.652
X-0.882 Y-16.624
X-0.918 Y-16.606
G2 X-3.172 Y-13.706 I0.918 J3.039
G1 Z1.5
X-3.175 Y-13.567
Y-4
G2 X-2.52 Y-1.006 I7.175 J0
G1 Z0 F50
G2 X7.587 Y2.214 I6.52 J-2.994 F2000
G1 X17.152 Y-3.308
G3 X18.064 Y-3.553 I0.912 J1.58
G1 X79.082
G3 X79.717 Y-2.918 I0 J0.635
G1 Y-2.283
G19 G3 Y-1.648 Z0.635 J0 K0.635
G1 Z23
G17
M5
M30
