(strut-first-test-cut)
(T5 D=6.35 CR=0 - ZMIN=-19 - flat end mill)
G90 G94
G17
G21
(-Attention- Property Safe Retracts is set to Clearance Height.)
(Ensure the clearance height will clear the part and or fixtures.)
(Raise the Z-axis to a safe height before starting the program.)
(When using Fusion 360 for Personal Use, the feedrate of)
(rapid moves is reduced to match the feedrate of cutting)
(moves, which can increase machining time. Unrestricted rapid)
(moves are available with a Fusion 360 Subscription.)

(2D Contour1)
T5 M6
S5000 M3
G17 G90 G94
G54
G0 X45.543 Y-11.516
Z0.2
G1 Z0.1 F400
Z-1.365 F50
X45.535 Y-11.515 Z-1.464 F400
X45.512 Y-11.512 Z-1.561
X45.474 Y-11.508 Z-1.653
X45.423 Y-11.501 Z-1.738
X45.358 Y-11.493 Z-1.814
X45.283 Y-11.483 Z-1.879
X45.199 Y-11.472 Z-1.931
X45.108 Y-11.461 Z-1.969
X45.011 Y-11.449 Z-1.992
X44.913 Y-11.436 Z-2
X44.283 Y-11.356
G3 X43.573 Y-11.906 I-0.08 J-0.63
G2 X42.669 Y-14.588 I-7.118 J0.906
G1 X37.147 Y-24.152
G2 X34.397 Y-25.739 I-2.75 J1.588
G1 X13.058
G2 X10.308 Y-24.152 I0 J3.175
G1 X4.786 Y-14.588
G2 X11 Y-3.825 I6.214 J3.588
G1 X20.567
G2 X23.606 Y-6.082 I0 J-3.175
G1 X23.624 Y-6.118
X23.652 Y-6.147
X23.688 Y-6.165
X23.728 Y-6.172
X23.767 Y-6.165
X23.803 Y-6.147
X23.831 Y-6.118
X23.849 Y-6.082
G2 X26.888 Y-3.825 I3.039 J-0.918
G1 X36.455
G2 X43.573 Y-11.906 I0 J-7.175
G3 X44.123 Y-12.616 I0.63 J-0.08
G1 X44.753 Y-12.696
X44.851 Y-12.708 Z-1.992
X44.947 Y-12.721 Z-1.969
X45.039 Y-12.732 Z-1.931
X45.123 Y-12.743 Z-1.879
X45.198 Y-12.753 Z-1.814
X45.262 Y-12.761 Z-1.738
X45.314 Y-12.767 Z-1.653
X45.352 Y-12.772 Z-1.561
X45.375 Y-12.775 Z-1.464
X45.383 Y-12.776 Z-1.365
Z0.1
X45.543 Y-11.516
Z-1.9 F50
Z-3.365
X45.535 Y-11.515 Z-3.464 F400
X45.512 Y-11.512 Z-3.561
X45.474 Y-11.508 Z-3.653
X45.423 Y-11.501 Z-3.738
X45.358 Y-11.493 Z-3.814
X45.283 Y-11.483 Z-3.879
X45.199 Y-11.472 Z-3.931
X45.108 Y-11.461 Z-3.969
X45.011 Y-11.449 Z-3.992
X44.913 Y-11.436 Z-4
X44.283 Y-11.356
G3 X43.573 Y-11.906 I-0.08 J-0.63
G2 X42.669 Y-14.588 I-7.118 J0.906
G1 X37.147 Y-24.152
G2 X34.397 Y-25.739 I-2.75 J1.588
G1 X13.058
G2 X10.308 Y-24.152 I0 J3.175
G1 X4.786 Y-14.588
G2 X11 Y-3.825 I6.214 J3.588
G1 X20.567
G2 X23.606 Y-6.082 I0 J-3.175
G1 X23.624 Y-6.118
X23.652 Y-6.147
X23.688 Y-6.165
X23.728 Y-6.172
X23.767 Y-6.165
X23.803 Y-6.147
X23.831 Y-6.118
X23.849 Y-6.082
G2 X26.888 Y-3.825 I3.039 J-0.918
G1 X36.455
G2 X43.573 Y-11.906 I0 J-7.175
G3 X44.123 Y-12.616 I0.63 J-0.08
G1 X44.753 Y-12.696
X44.851 Y-12.708 Z-3.992
X44.947 Y-12.721 Z-3.969
X45.039 Y-12.732 Z-3.931
X45.123 Y-12.743 Z-3.879
X45.198 Y-12.753 Z-3.814
X45.262 Y-12.761 Z-3.738
X45.314 Y-12.767 Z-3.653
X45.352 Y-12.772 Z-3.561
X45.375 Y-12.775 Z-3.464
X45.383 Y-12.776 Z-3.365
Z0.1
X45.543 Y-11.516
Z-3.9 F50
Z-5.365
X45.535 Y-11.515 Z-5.464 F400
X45.512 Y-11.512 Z-5.561
X45.474 Y-11.508 Z-5.653
X45.423 Y-11.501 Z-5.738
X45.358 Y-11.493 Z-5.814
X45.283 Y-11.483 Z-5.879
X45.199 Y-11.472 Z-5.931
X45.108 Y-11.461 Z-5.969
X45.011 Y-11.449 Z-5.992
X44.913 Y-11.436 Z-6
X44.283 Y-11.356
G3 X43.573 Y-11.906 I-0.08 J-0.63
G2 X42.669 Y-14.588 I-7.118 J0.906
G1 X37.147 Y-24.152
G2 X34.397 Y-25.739 I-2.75 J1.588
G1 X13.058
G2 X10.308 Y-24.152 I0 J3.175
G1 X4.786 Y-14.588
G2 X11 Y-3.825 I6.214 J3.588
G1 X20.567
G2 X23.606 Y-6.082 I0 J-3.175
G1 X23.624 Y-6.118
X23.652 Y-6.147
X23.688 Y-6.165
X23.728 Y-6.172
X23.767 Y-6.165
X23.803 Y-6.147
X23.831 Y-6.118
X23.849 Y-6.082
G2 X26.888 Y-3.825 I3.039 J-0.918
G1 X36.455
G2 X43.573 Y-11.906 I0 J-7.175
G3 X44.123 Y-12.616 I0.63 J-0.08
G1 X44.753 Y-12.696
X44.851 Y-12.708 Z-5.992
X44.947 Y-12.721 Z-5.969
X45.039 Y-12.732 Z-5.931
X45.123 Y-12.743 Z-5.879
X45.198 Y-12.753 Z-5.814
X45.262 Y-12.761 Z-5.738
X45.314 Y-12.767 Z-5.653
X45.352 Y-12.772 Z-5.561
X45.375 Y-12.775 Z-5.464
X45.383 Y-12.776 Z-5.365
Z0.1
X45.543 Y-11.516
Z-5.9 F50
Z-7.365
X45.535 Y-11.515 Z-7.464 F400
X45.512 Y-11.512 Z-7.561
X45.474 Y-11.508 Z-7.653
X45.423 Y-11.501 Z-7.738
X45.358 Y-11.493 Z-7.814
X45.283 Y-11.483 Z-7.879
X45.199 Y-11.472 Z-7.931
X45.108 Y-11.461 Z-7.969
X45.011 Y-11.449 Z-7.992
X44.913 Y-11.436 Z-8
X44.283 Y-11.356
G3 X43.573 Y-11.906 I-0.08 J-0.63
G2 X42.669 Y-14.588 I-7.118 J0.906
G1 X37.147 Y-24.152
G2 X34.397 Y-25.739 I-2.75 J1.588
G1 X13.058
G2 X10.308 Y-24.152 I0 J3.175
G1 X4.786 Y-14.588
G2 X11 Y-3.825 I6.214 J3.588
G1 X20.567
G2 X23.606 Y-6.082 I0 J-3.175
G1 X23.624 Y-6.118
X23.652 Y-6.147
X23.688 Y-6.165
X23.728 Y-6.172
X23.767 Y-6.165
X23.803 Y-6.147
X23.831 Y-6.118
X23.849 Y-6.082
G2 X26.888 Y-3.825 I3.039 J-0.918
G1 X36.455
G2 X43.573 Y-11.906 I0 J-7.175
G3 X44.123 Y-12.616 I0.63 J-0.08
G1 X44.753 Y-12.696
X44.851 Y-12.708 Z-7.992
X44.947 Y-12.721 Z-7.969
X45.039 Y-12.732 Z-7.931
X45.123 Y-12.743 Z-7.879
X45.198 Y-12.753 Z-7.814
X45.262 Y-12.761 Z-7.738
X45.314 Y-12.767 Z-7.653
X45.352 Y-12.772 Z-7.561
X45.375 Y-12.775 Z-7.464
X45.383 Y-12.776 Z-7.365
Z0.1
X45.543 Y-11.516
Z-7.9 F50
Z-9.365
X45.535 Y-11.515 Z-9.464 F400
X45.512 Y-11.512 Z-9.561
X45.474 Y-11.508 Z-9.653
X45.423 Y-11.501 Z-9.738
X45.358 Y-11.493 Z-9.814
X45.283 Y-11.483 Z-9.879
X45.199 Y-11.472 Z-9.931
X45.108 Y-11.461 Z-9.969
X45.011 Y-11.449 Z-9.992
X44.913 Y-11.436 Z-10
X44.283 Y-11.356
G3 X43.573 Y-11.906 I-0.08 J-0.63
G2 X42.669 Y-14.588 I-7.118 J0.906
G1 X37.147 Y-24.152
G2 X34.397 Y-25.739 I-2.75 J1.588
G1 X13.058
G2 X10.308 Y-24.152 I0 J3.175
G1 X4.786 Y-14.588
G2 X11 Y-3.825 I6.214 J3.588
G1 X20.567
G2 X23.606 Y-6.082 I0 J-3.175
G1 X23.624 Y-6.118
X23.652 Y-6.147
X23.688 Y-6.165
X23.728 Y-6.172
X23.767 Y-6.165
X23.803 Y-6.147
X23.831 Y-6.118
X23.849 Y-6.082
G2 X26.888 Y-3.825 I3.039 J-0.918
G1 X36.455
G2 X43.573 Y-11.906 I0 J-7.175
G3 X44.123 Y-12.616 I0.63 J-0.08
G1 X44.753 Y-12.696
X44.851 Y-12.708 Z-9.992
X44.947 Y-12.721 Z-9.969
X45.039 Y-12.732 Z-9.931
X45.123 Y-12.743 Z-9.879
X45.198 Y-12.753 Z-9.814
X45.262 Y-12.761 Z-9.738
X45.314 Y-12.767 Z-9.653
X45.352 Y-12.772 Z-9.561
X45.375 Y-12.775 Z-9.464
X45.383 Y-12.776 Z-9.365
Z0.1
X45.543 Y-11.516
Z-9.9 F50
Z-11.365
X45.535 Y-11.515 Z-11.464 F400
X45.512 Y-11.512 Z-11.561
X45.474 Y-11.508 Z-11.653
X45.423 Y-11.501 Z-11.738
X45.358 Y-11.493 Z-11.814
X45.283 Y-11.483 Z-11.879
X45.199 Y-11.472 Z-11.931
X45.108 Y-11.461 Z-11.969
X45.011 Y-11.449 Z-11.992
X44.913 Y-11.436 Z-12
X44.283 Y-11.356
G3 X43.573 Y-11.906 I-0.08 J-0.63
G2 X42.669 Y-14.588 I-7.118 J0.906
G1 X37.147 Y-24.152
G2 X34.397 Y-25.739 I-2.75 J1.588
G1 X13.058
G2 X10.308 Y-24.152 I0 J3.175
G1 X4.786 Y-14.588
G2 X11 Y-3.825 I6.214 J3.588
G1 X20.567
G2 X23.606 Y-6.082 I0 J-3.175
G1 X23.624 Y-6.118
X23.652 Y-6.147
X23.688 Y-6.165
X23.728 Y-6.172
X23.767 Y-6.165
X23.803 Y-6.147
X23.831 Y-6.118
X23.849 Y-6.082
G2 X26.888 Y-3.825 I3.039 J-0.918
G1 X36.455
G2 X43.573 Y-11.906 I0 J-7.175
G3 X44.123 Y-12.616 I0.63 J-0.08
G1 X44.753 Y-12.696
X44.851 Y-12.708 Z-11.992
X44.947 Y-12.721 Z-11.969
X45.039 Y-12.732 Z-11.931
X45.123 Y-12.743 Z-11.879
X45.198 Y-12.753 Z-11.814
X45.262 Y-12.761 Z-11.738
X45.314 Y-12.767 Z-11.653
X45.352 Y-12.772 Z-11.561
X45.375 Y-12.775 Z-11.464
X45.383 Y-12.776 Z-11.365
Z0.1
X45.543 Y-11.516
Z-11.9 F50
Z-13.365
X45.535 Y-11.515 Z-13.464 F400
X45.512 Y-11.512 Z-13.561
X45.474 Y-11.508 Z-13.653
X45.423 Y-11.501 Z-13.738
X45.358 Y-11.493 Z-13.814
X45.283 Y-11.483 Z-13.879
X45.199 Y-11.472 Z-13.931
X45.108 Y-11.461 Z-13.969
X45.011 Y-11.449 Z-13.992
X44.913 Y-11.436 Z-14
X44.283 Y-11.356
G3 X43.573 Y-11.906 I-0.08 J-0.63
G2 X42.669 Y-14.588 I-7.118 J0.906
G1 X37.147 Y-24.152
G2 X34.397 Y-25.739 I-2.75 J1.588
G1 X13.058
G2 X10.308 Y-24.152 I0 J3.175
G1 X4.786 Y-14.588
G2 X11 Y-3.825 I6.214 J3.588
G1 X20.567
G2 X23.606 Y-6.082 I0 J-3.175
G1 X23.624 Y-6.118
X23.652 Y-6.147
X23.688 Y-6.165
X23.728 Y-6.172
X23.767 Y-6.165
X23.803 Y-6.147
X23.831 Y-6.118
X23.849 Y-6.082
G2 X26.888 Y-3.825 I3.039 J-0.918
G1 X36.455
G2 X43.573 Y-11.906 I0 J-7.175
G3 X44.123 Y-12.616 I0.63 J-0.08
G1 X44.753 Y-12.696
X44.851 Y-12.708 Z-13.992
X44.947 Y-12.721 Z-13.969
X45.039 Y-12.732 Z-13.931
X45.123 Y-12.743 Z-13.879
X45.198 Y-12.753 Z-13.814
X45.262 Y-12.761 Z-13.738
X45.314 Y-12.767 Z-13.653
X45.352 Y-12.772 Z-13.561
X45.375 Y-12.775 Z-13.464
X45.383 Y-12.776 Z-13.365
Z0.1
X45.543 Y-11.516
Z-13.9 F50
Z-15.365
X45.535 Y-11.515 Z-15.464 F400
X45.512 Y-11.512 Z-15.561
X45.474 Y-11.508 Z-15.653
X45.423 Y-11.501 Z-15.738
X45.358 Y-11.493 Z-15.814
X45.283 Y-11.483 Z-15.879
X45.199 Y-11.472 Z-15.931
X45.108 Y-11.461 Z-15.969
X45.011 Y-11.449 Z-15.992
X44.913 Y-11.436 Z-16
X44.283 Y-11.356
G3 X43.573 Y-11.906 I-0.08 J-0.63
G2 X42.669 Y-14.588 I-7.118 J0.906
G1 X37.147 Y-24.152
G2 X34.397 Y-25.739 I-2.75 J1.588
G1 X13.058
G2 X10.308 Y-24.152 I0 J3.175
G1 X4.786 Y-14.588
G2 X11 Y-3.825 I6.214 J3.588
G1 X20.567
G2 X23.606 Y-6.082 I0 J-3.175
G1 X23.624 Y-6.118
X23.652 Y-6.147
X23.688 Y-6.165
X23.728 Y-6.172
X23.767 Y-6.165
X23.803 Y-6.147
X23.831 Y-6.118
X23.849 Y-6.082
G2 X26.888 Y-3.825 I3.039 J-0.918
G1 X36.455
G2 X43.573 Y-11.906 I0 J-7.175
G3 X44.123 Y-12.616 I0.63 J-0.08
G1 X44.753 Y-12.696
X44.851 Y-12.708 Z-15.992
X44.947 Y-12.721 Z-15.969
X45.039 Y-12.732 Z-15.931
X45.123 Y-12.743 Z-15.879
X45.198 Y-12.753 Z-15.814
X45.262 Y-12.761 Z-15.738
X45.314 Y-12.767 Z-15.653
X45.352 Y-12.772 Z-15.561
X45.375 Y-12.775 Z-15.464
X45.383 Y-12.776 Z-15.365
Z0.1
X45.543 Y-11.516
Z-15.9 F50
Z-17.365
X45.535 Y-11.515 Z-17.464 F400
X45.512 Y-11.512 Z-17.561
X45.474 Y-11.508 Z-17.653
X45.423 Y-11.501 Z-17.738
X45.358 Y-11.493 Z-17.814
X45.283 Y-11.483 Z-17.879
X45.199 Y-11.472 Z-17.931
X45.108 Y-11.461 Z-17.969
X45.011 Y-11.449 Z-17.992
X44.913 Y-11.436 Z-18
X44.283 Y-11.356
G3 X43.573 Y-11.906 I-0.08 J-0.63
G2 X42.669 Y-14.588 I-7.118 J0.906
G1 X37.147 Y-24.152
G2 X34.397 Y-25.739 I-2.75 J1.588
G1 X32.157
Z-17.413
X19.457
Z-18 F50
X13.058 F400
G2 X10.308 Y-24.152 I0 J3.175
G1 X4.786 Y-14.588
G2 X9.36 Y-4.015 I6.214 J3.588
G1 Z-17.413
G2 X11 Y-3.825 I1.64 J-6.985
G1 X20.567
G2 X22.06 Y-4.198 I0 J-3.175
G1 Z-18 F50
G2 X23.606 Y-6.082 I-1.493 J-2.802 F400
G1 X23.624 Y-6.118
X23.652 Y-6.147
X23.688 Y-6.165
X23.728 Y-6.172
X23.767 Y-6.165
X23.803 Y-6.147
X23.831 Y-6.118
X23.849 Y-6.082
G2 X26.66 Y-3.833 I3.039 J-0.918
G1 Z-17.413
X26.774 Y-3.827
X26.888 Y-3.825
X36.455
G2 X39.36 Y-4.439 I0 J-7.175
G1 Z-18 F50
G2 X43.573 Y-11.906 I-2.905 J-6.561 F400
G3 X44.123 Y-12.616 I0.63 J-0.08
G1 X44.753 Y-12.696
X44.851 Y-12.708 Z-17.992
X44.947 Y-12.721 Z-17.969
X45.039 Y-12.732 Z-17.931
X45.123 Y-12.743 Z-17.879
X45.198 Y-12.753 Z-17.814
X45.262 Y-12.761 Z-17.738
X45.314 Y-12.767 Z-17.653
X45.352 Y-12.772 Z-17.561
X45.375 Y-12.775 Z-17.464
X45.383 Y-12.776 Z-17.365
Z0.1
X45.543 Y-11.516
Z-17.9 F50
Z-18.365
X45.535 Y-11.515 Z-18.464 F400
X45.512 Y-11.512 Z-18.561
X45.474 Y-11.508 Z-18.653
X45.423 Y-11.501 Z-18.738
X45.358 Y-11.493 Z-18.814
X45.283 Y-11.483 Z-18.879
X45.199 Y-11.472 Z-18.931
X45.108 Y-11.461 Z-18.969
X45.011 Y-11.449 Z-18.992
X44.913 Y-11.436 Z-19
X44.283 Y-11.356
G3 X43.573 Y-11.906 I-0.08 J-0.63
G2 X42.669 Y-14.588 I-7.118 J0.906
G1 X37.147 Y-24.152
G2 X34.397 Y-25.739 I-2.75 J1.588
G1 X32.157
Z-17.413
X19.457
Z-19 F50
X13.058 F400
G2 X10.308 Y-24.152 I0 J3.175
G1 X4.786 Y-14.588
G2 X9.36 Y-4.015 I6.214 J3.588
G1 Z-17.413
G2 X11 Y-3.825 I1.64 J-6.985
G1 X20.567
G2 X22.06 Y-4.198 I0 J-3.175
G1 Z-19 F50
G2 X23.606 Y-6.082 I-1.493 J-2.802 F400
G1 X23.624 Y-6.118
X23.652 Y-6.147
X23.688 Y-6.165
X23.728 Y-6.172
X23.767 Y-6.165
X23.803 Y-6.147
X23.831 Y-6.118
X23.849 Y-6.082
G2 X26.66 Y-3.833 I3.039 J-0.918
G1 Z-17.413
X26.774 Y-3.827
X26.888 Y-3.825
X36.455
G2 X39.36 Y-4.439 I0 J-7.175
G1 Z-19 F50
G2 X43.573 Y-11.906 I-2.905 J-6.561 F400
G3 X44.123 Y-12.616 I0.63 J-0.08
G1 X44.753 Y-12.696
X44.851 Y-12.708 Z-18.992
X44.947 Y-12.721 Z-18.969
X45.039 Y-12.732 Z-18.931
X45.123 Y-12.743 Z-18.879
X45.198 Y-12.753 Z-18.814
X45.262 Y-12.761 Z-18.738
X45.314 Y-12.767 Z-18.653
X45.352 Y-12.772 Z-18.561
X45.375 Y-12.775 Z-18.464
X45.383 Y-12.776 Z-18.365
Z0.2
M5
M30
