(trinode_slope3)
(T5 D=6.35 CR=0 - ZMIN=0.436 - flat end mill)
G90 G94
G17
G21
(-Attention- Property Safe Retracts is set to Clearance Height.)
(Ensure the clearance height will clear the part and or fixtures.)
(Raise the Z-axis to a safe height before starting the program.)
(When using Fusion 360 for Personal Use, the feedrate of)
(rapid moves is reduced to match the feedrate of cutting)
(moves, which can increase machining time. Unrestricted rapid)
(moves are available with a Fusion 360 Subscription.)

(Parallel3 3)
T5 M6
S5000 M3
G17 G90 G94
G54
G0 X62.017 Y-51.755
Z23
G1 Z21 F100
Z18.961 F50
X62.022 Y-51.757 Z18.88 F100
X62.037 Y-51.761 Z18.8
X62.125 Y-51.784 Z18.452
X62.3 Y-51.831 Z17.671
X62.478 Y-51.879 Z16.743
X62.658 Y-51.927 Z15.648
X62.836 Y-51.975 Z14.388
X63.01 Y-52.022 Z12.946
X63.177 Y-52.066 Z11.327
X63.336 Y-52.109 Z9.514
X63.479 Y-52.147 Z7.544
X63.605 Y-52.181 Z5.444
X63.716 Y-52.211 Z3.073
X63.728 Y-52.214 Z2.975
X63.754 Y-52.221 Z2.881
X63.794 Y-52.232 Z2.792
X63.847 Y-52.246 Z2.711
X63.911 Y-52.263 Z2.638
X63.985 Y-52.283 Z2.577
X64.068 Y-52.305 Z2.529
X64.156 Y-52.329 Z2.494
X64.249 Y-52.354 Z2.474
X64.344 Y-52.379 Z2.469
X64.438 Y-52.404 Z2.479
X64.53 Y-52.429 Z2.503
X64.617 Y-52.452 Z2.543
X64.697 Y-52.473 Z2.595
X64.768 Y-52.493 Z2.66
X64.829 Y-52.509 Z2.735
X64.877 Y-52.522 Z2.819
X64.913 Y-52.531 Z2.91
X64.935 Y-52.537 Z3.006
X64.942 Y-52.539 Z3.103
Z21
X60.17 Y-48.673
Z18.87 F50
X60.174 Y-48.674 Z18.797 F100
X62.195 Y-49.216 Z0.717
X62.21 Y-49.22 Z0.65
X62.238 Y-49.228 Z0.588
X62.278 Y-49.238 Z0.533
X62.329 Y-49.252 Z0.489
X62.388 Y-49.268 Z0.458
X62.452 Y-49.285 Z0.44
X62.518 Y-49.302 Z0.436
X62.583 Y-49.32 Z0.447
X62.644 Y-49.336 Z0.473
X62.699 Y-49.351 Z0.512
X62.744 Y-49.363 Z0.561
X62.778 Y-49.372 Z0.62
X62.799 Y-49.378 Z0.685
X62.807 Y-49.38 Z0.753
Z18.871
X62.808 Y-49.373 Z18.985
X62.813 Y-49.353 Z19.099
X62.822 Y-49.32 Z19.208
X62.833 Y-49.274 Z19.313
X62.848 Y-49.216 Z19.412
X62.865 Y-49.148 Z19.502
X62.885 Y-49.069 Z19.584
X62.907 Y-48.981 Z19.655
X62.931 Y-48.885 Z19.714
X62.957 Y-48.784 Z19.761
X62.984 Y-48.677 Z19.795
X63.011 Y-48.568 Z19.816
X63.039 Y-48.456 Z19.823
X63.184 Y-47.88
X63.212 Y-47.768 Z19.816
X63.24 Y-47.659 Z19.795
X63.267 Y-47.552 Z19.761
X63.292 Y-47.451 Z19.714
X63.316 Y-47.355 Z19.655
X63.338 Y-47.267 Z19.584
X63.358 Y-47.188 Z19.502
X63.376 Y-47.12 Z19.412
X63.39 Y-47.062 Z19.313
X63.402 Y-47.016 Z19.208
X63.41 Y-46.983 Z19.099
X63.415 Y-46.963 Z18.985
X63.417 Y-46.956 Z18.871
X63.419 Y-46.957 Z18.835
X63.425 Y-46.958 Z18.799
X63.598 Y-47.005 Z18.019
X63.777 Y-47.053 Z17.076
X63.957 Y-47.101 Z15.974
X64.137 Y-47.149 Z14.696
X64.312 Y-47.196 Z13.238
X64.48 Y-47.241 Z11.601
X64.637 Y-47.283 Z9.792
X64.779 Y-47.321 Z7.823
X64.904 Y-47.355 Z5.704
X65.014 Y-47.384 Z3.345
X65.026 Y-47.387 Z3.248
X65.052 Y-47.394 Z3.153
X65.092 Y-47.405 Z3.064
X65.144 Y-47.419 Z2.983
X65.209 Y-47.436 Z2.911
X65.283 Y-47.456 Z2.849
X65.365 Y-47.478 Z2.801
X65.454 Y-47.502 Z2.766
X65.546 Y-47.527 Z2.746
X65.641 Y-47.552 Z2.741
X65.735 Y-47.577 Z2.75
X65.827 Y-47.602 Z2.775
X65.914 Y-47.625 Z2.815
X65.994 Y-47.647 Z2.867
X66.065 Y-47.666 Z2.932
X66.126 Y-47.682 Z3.007
X66.175 Y-47.695 Z3.091
X66.211 Y-47.705 Z3.182
X66.232 Y-47.711 Z3.278
X66.24 Y-47.713 Z3.375
Z23
M5
M30
