(trinode_slope2)
(T5 D=6.35 CR=0 - ZMIN=0.285 - flat end mill)
G90 G94
G17
G21
(-Attention- Property Safe Retracts is set to Clearance Height.)
(Ensure the clearance height will clear the part and or fixtures.)
(Raise the Z-axis to a safe height before starting the program.)
(When using Fusion 360 for Personal Use, the feedrate of)
(rapid moves is reduced to match the feedrate of cutting)
(moves, which can increase machining time. Unrestricted rapid)
(moves are available with a Fusion 360 Subscription.)

(Parallel3 2)
T5 M6
S5000 M3
G17 G90 G94
G54
G0 X30.632 Y-55.658
Z23
G1 Z21 F100
Z19.007 F50
X30.63 Y-55.661 Z18.937 F100
X30.621 Y-55.669 Z18.868
X30.608 Y-55.683 Z18.8
X30.498 Y-55.792 Z18.352
X30.376 Y-55.915 Z17.76
X30.25 Y-56.041 Z17.039
X30.12 Y-56.171 Z16.172
X29.988 Y-56.303 Z15.142
X29.856 Y-56.434 Z13.947
X29.727 Y-56.563 Z12.581
X29.603 Y-56.688 Z11.038
X29.482 Y-56.809 Z9.269
X29.372 Y-56.918 Z7.366
X29.274 Y-57.016 Z5.303
X29.191 Y-57.1 Z3.112
X29.182 Y-57.109 Z3.015
X29.162 Y-57.129 Z2.921
X29.133 Y-57.158 Z2.832
X29.094 Y-57.197 Z2.751
X29.047 Y-57.244 Z2.679
X28.992 Y-57.298 Z2.619
X28.932 Y-57.359 Z2.571
X28.867 Y-57.423 Z2.536
X28.799 Y-57.491 Z2.516
X28.73 Y-57.56 Z2.511
X28.661 Y-57.629 Z2.522
X28.594 Y-57.696 Z2.547
X28.531 Y-57.76 Z2.586
X28.473 Y-57.818 Z2.639
X28.421 Y-57.87 Z2.703
X28.376 Y-57.914 Z2.778
X28.341 Y-57.95 Z2.862
X28.315 Y-57.976 Z2.953
X28.299 Y-57.992 Z3.049
X28.293 Y-57.997 Z3.146
Z21
X33.994 Y-55.831
Z18.872 F50
X33.991 Y-55.834 Z18.799 F100
X32.941 Y-56.884 Z6.03
X32.569 Y-57.256 Z1.655
X32.459 Y-57.366 Z0.558
X32.447 Y-57.378 Z0.492
X32.425 Y-57.4 Z0.431
X32.395 Y-57.43 Z0.378
X32.358 Y-57.467 Z0.335
X32.315 Y-57.51 Z0.305
X32.269 Y-57.557 Z0.288
X32.221 Y-57.605 Z0.285
X32.173 Y-57.652 Z0.297
X32.129 Y-57.696 Z0.323
X32.089 Y-57.736 Z0.362
X32.057 Y-57.768 Z0.412
X32.032 Y-57.793 Z0.47
X32.017 Y-57.808 Z0.535
X32.012 Y-57.813 Z0.602
Z18.857
X32.017 Y-57.818 Z18.972
X32.031 Y-57.834 Z19.085
X32.054 Y-57.859 Z19.195
X32.085 Y-57.894 Z19.299
X32.126 Y-57.938 Z19.398
X32.174 Y-57.99 Z19.488
X32.229 Y-58.05 Z19.57
X32.29 Y-58.117 Z19.641
X32.356 Y-58.189 Z19.7
X32.427 Y-58.267 Z19.747
X32.501 Y-58.348 Z19.782
X32.578 Y-58.431 Z19.802
X32.655 Y-58.516 Z19.809
X33.058 Y-58.956
X33.136 Y-59.04 Z19.802
X33.212 Y-59.124 Z19.782
X33.286 Y-59.205 Z19.747
X33.357 Y-59.282 Z19.7
X33.423 Y-59.355 Z19.641
X33.485 Y-59.421 Z19.57
X33.54 Y-59.481 Z19.488
X33.587 Y-59.534 Z19.398
X33.628 Y-59.578 Z19.299
X33.66 Y-59.612 Z19.195
X33.683 Y-59.638 Z19.085
X33.697 Y-59.653 Z18.972
X33.701 Y-59.658 Z18.857
X33.697 Y-59.662 Z18.797
X33.569 Y-59.791 Z17.843
X33.437 Y-59.922 Z16.706
X33.307 Y-60.052 Z15.399
X33.18 Y-60.179 Z13.914
X33.059 Y-60.3 Z12.246
X32.946 Y-60.413 Z10.409
X32.844 Y-60.515 Z8.407
X32.756 Y-60.604 Z6.274
X32.682 Y-60.677 Z4.003
X32.673 Y-60.686 Z3.906
X32.654 Y-60.705 Z3.811
X32.625 Y-60.734 Z3.722
X32.587 Y-60.773 Z3.64
X32.54 Y-60.82 Z3.568
X32.485 Y-60.874 Z3.507
X32.425 Y-60.934 Z3.458
X32.36 Y-60.999 Z3.423
X32.292 Y-61.067 Z3.403
X32.223 Y-61.136 Z3.397
X32.154 Y-61.205 Z3.407
X32.087 Y-61.273 Z3.432
X32.023 Y-61.336 Z3.471
X31.964 Y-61.395 Z3.524
X31.912 Y-61.447 Z3.588
X31.868 Y-61.492 Z3.664
X31.832 Y-61.527 Z3.748
X31.806 Y-61.554 Z3.839
X31.79 Y-61.57 Z3.934
X31.784 Y-61.575 Z4.032
Z23
M5
M30
