(trinode_outline)
(T5 D=6.35 CR=0 - ZMIN=0 - flat end mill)
G90 G94
G17
G21
(-Attention- Property Safe Retracts is set to Clearance Height.)
(Ensure the clearance height will clear the part and or fixtures.)
(Raise the Z-axis to a safe height before starting the program.)
(When using Fusion 360 for Personal Use, the feedrate of)
(rapid moves is reduced to match the feedrate of cutting)
(moves, which can increase machining time. Unrestricted rapid)
(moves are available with a Fusion 360 Subscription.)

(2D Contour2)
T5 M6
S5000 M3
G17 G90 G94
G54
G0 Z23
G0 X21.796 Y-87.756
G1 Z21 F2000
Z19.1 F50
Z17.635
X21.803 Y-87.752 Z17.536 F2000
X21.822 Y-87.739 Z17.439
X21.853 Y-87.717 Z17.347
X21.897 Y-87.688 Z17.262
X21.95 Y-87.652 Z17.186
X22.013 Y-87.61 Z17.121
X22.084 Y-87.562 Z17.069
X22.16 Y-87.511 Z17.031
X22.24 Y-87.457 Z17.008
X22.323 Y-87.401 Z17
X22.849 Y-87.046
G3 X23.02 Y-86.165 I-0.355 J0.526
G2 X27.797 Y-73.389 I6.945 J4.684
G1 X38.465 Y-70.53
G3 X39.276 Y-67.503 I-0.468 J1.748
G1 X32.937 Y-61.164
G2 X32.384 Y-57.419 I2.245 J2.245
G1 X32.397 Y-57.381
Y-57.341
X32.385 Y-57.302
X32.362 Y-57.27
X32.329 Y-57.246
X32.291 Y-57.234
X32.25 Y-57.235
X32.212 Y-57.248
G2 X28.468 Y-56.694 I-1.5 J2.798
G1 X22.129 Y-50.355
G3 X19.101 Y-51.167 I-1.28 J-1.28
G1 X16.243 Y-61.834
G2 X0.395 Y-62.831 I-8.092 J2.168
X15.471 Y-6.568 I44.605 J18.199
X28.697 Y-15.355 I5.135 J-6.619
G1 X25.839 Y-26.022
G3 X28.055 Y-28.239 I1.748 J-0.468
G1 X36.714 Y-25.918
G2 X40.234 Y-27.311 I0.822 J-3.067
G1 X40.26 Y-27.342
X40.295 Y-27.362
X40.334 Y-27.371
X40.374 Y-27.367
X40.411 Y-27.351
X40.44 Y-27.323
X40.46 Y-27.288
X40.468 Y-27.249
G2 X42.819 Y-24.282 I3.173 J-0.101
G1 X51.478 Y-21.962
G3 X52.29 Y-18.935 I-0.468 J1.748
G1 X44.481 Y-11.125
G2 X51.541 Y3.097 I5.923 J5.923
X92.729 Y-38.09 I-6.541 J-47.729
X78.506 Y-45.151 I-8.299 J-1.137
G1 X70.697 Y-37.342
G3 X67.669 Y-38.153 I-1.28 J-1.28
G1 X65.349 Y-46.812
G2 X62.383 Y-49.164 I-3.067 J0.822
G1 X62.343 Y-49.171
X62.308 Y-49.191
X62.281 Y-49.221
X62.264 Y-49.257
X62.26 Y-49.297
X62.269 Y-49.337
X62.29 Y-49.371
X62.32 Y-49.398
G2 X63.713 Y-52.917 I-1.674 J-2.698
G1 X61.393 Y-61.576
G3 X63.609 Y-63.793 I1.748 J-0.468
G1 X74.277 Y-60.935
G2 X83.064 Y-74.161 I2.168 J-8.091
X26.801 Y-89.237 I-38.064 J29.529
X23.02 Y-86.165 I3.165 J7.756
G3 X22.139 Y-85.993 I-0.526 J-0.355
G1 X21.612 Y-86.348
X21.53 Y-86.404 Z17.008
X21.45 Y-86.458 Z17.031
X21.373 Y-86.509 Z17.069
X21.303 Y-86.557 Z17.121
X21.24 Y-86.599 Z17.186
X21.186 Y-86.635 Z17.262
X21.143 Y-86.665 Z17.347
X21.112 Y-86.686 Z17.439
X21.092 Y-86.699 Z17.536
X21.086 Y-86.703 Z17.635
X21.796 Y-87.756
Z15.635 F50
X21.803 Y-87.752 Z15.536 F2000
X21.822 Y-87.739 Z15.439
X21.853 Y-87.717 Z15.347
X21.897 Y-87.688 Z15.262
X21.95 Y-87.652 Z15.186
X22.013 Y-87.61 Z15.121
X22.084 Y-87.562 Z15.069
X22.16 Y-87.511 Z15.031
X22.24 Y-87.457 Z15.008
X22.323 Y-87.401 Z15
X22.849 Y-87.046
G3 X23.02 Y-86.165 I-0.355 J0.526
G2 X27.797 Y-73.389 I6.945 J4.684
G1 X38.465 Y-70.53
G3 X39.276 Y-67.503 I-0.468 J1.748
G1 X32.937 Y-61.164
G2 X32.384 Y-57.419 I2.245 J2.245
G1 X32.397 Y-57.381
Y-57.341
X32.385 Y-57.302
X32.362 Y-57.27
X32.329 Y-57.246
X32.291 Y-57.234
X32.25 Y-57.235
X32.212 Y-57.248
G2 X28.468 Y-56.694 I-1.5 J2.798
G1 X22.129 Y-50.355
G3 X19.101 Y-51.167 I-1.28 J-1.28
G1 X16.243 Y-61.834
G2 X0.395 Y-62.831 I-8.092 J2.168
X15.471 Y-6.568 I44.605 J18.199
X28.697 Y-15.355 I5.135 J-6.619
G1 X25.839 Y-26.022
G3 X28.055 Y-28.239 I1.748 J-0.468
G1 X36.714 Y-25.918
G2 X40.234 Y-27.311 I0.822 J-3.067
G1 X40.26 Y-27.342
X40.295 Y-27.362
X40.334 Y-27.371
X40.374 Y-27.367
X40.411 Y-27.351
X40.44 Y-27.323
X40.46 Y-27.288
X40.468 Y-27.249
G2 X42.819 Y-24.282 I3.173 J-0.101
G1 X51.478 Y-21.962
G3 X52.29 Y-18.935 I-0.468 J1.748
G1 X44.481 Y-11.125
G2 X51.541 Y3.097 I5.923 J5.923
X92.729 Y-38.09 I-6.541 J-47.729
X78.506 Y-45.151 I-8.299 J-1.137
G1 X70.697 Y-37.342
G3 X67.669 Y-38.153 I-1.28 J-1.28
G1 X65.349 Y-46.812
G2 X62.383 Y-49.164 I-3.067 J0.822
G1 X62.343 Y-49.171
X62.308 Y-49.191
X62.281 Y-49.221
X62.264 Y-49.257
X62.26 Y-49.297
X62.269 Y-49.337
X62.29 Y-49.371
X62.32 Y-49.398
G2 X63.713 Y-52.917 I-1.674 J-2.698
G1 X61.393 Y-61.576
G3 X63.609 Y-63.793 I1.748 J-0.468
G1 X74.277 Y-60.935
G2 X83.064 Y-74.161 I2.168 J-8.091
X26.801 Y-89.237 I-38.064 J29.529
X23.02 Y-86.165 I3.165 J7.756
G3 X22.139 Y-85.993 I-0.526 J-0.355
G1 X21.612 Y-86.348
X21.53 Y-86.404 Z15.008
X21.45 Y-86.458 Z15.031
X21.373 Y-86.509 Z15.069
X21.303 Y-86.557 Z15.121
X21.24 Y-86.599 Z15.186
X21.186 Y-86.635 Z15.262
X21.143 Y-86.665 Z15.347
X21.112 Y-86.686 Z15.439
X21.092 Y-86.699 Z15.536
X21.086 Y-86.703 Z15.635
X21.796 Y-87.756
Z13.635 F50
X21.803 Y-87.752 Z13.536 F2000
X21.822 Y-87.739 Z13.439
X21.853 Y-87.717 Z13.347
X21.897 Y-87.688 Z13.262
X21.95 Y-87.652 Z13.186
X22.013 Y-87.61 Z13.121
X22.084 Y-87.562 Z13.069
X22.16 Y-87.511 Z13.031
X22.24 Y-87.457 Z13.008
X22.323 Y-87.401 Z13
X22.849 Y-87.046
G3 X23.02 Y-86.165 I-0.355 J0.526
G2 X27.797 Y-73.389 I6.945 J4.684
G1 X38.465 Y-70.53
G3 X39.276 Y-67.503 I-0.468 J1.748
G1 X32.937 Y-61.164
G2 X32.384 Y-57.419 I2.245 J2.245
G1 X32.397 Y-57.381
Y-57.341
X32.385 Y-57.302
X32.362 Y-57.27
X32.329 Y-57.246
X32.291 Y-57.234
X32.25 Y-57.235
X32.212 Y-57.248
G2 X28.468 Y-56.694 I-1.5 J2.798
G1 X22.129 Y-50.355
G3 X19.101 Y-51.167 I-1.28 J-1.28
G1 X16.243 Y-61.834
G2 X0.395 Y-62.831 I-8.092 J2.168
X15.471 Y-6.568 I44.605 J18.199
X28.697 Y-15.355 I5.135 J-6.619
G1 X25.839 Y-26.022
G3 X28.055 Y-28.239 I1.748 J-0.468
G1 X36.714 Y-25.918
G2 X40.234 Y-27.311 I0.822 J-3.067
G1 X40.26 Y-27.342
X40.295 Y-27.362
X40.334 Y-27.371
X40.374 Y-27.367
X40.411 Y-27.351
X40.44 Y-27.323
X40.46 Y-27.288
X40.468 Y-27.249
G2 X42.819 Y-24.282 I3.173 J-0.101
G1 X51.478 Y-21.962
G3 X52.29 Y-18.935 I-0.468 J1.748
G1 X44.481 Y-11.125
G2 X51.541 Y3.097 I5.923 J5.923
X92.729 Y-38.09 I-6.541 J-47.729
X78.506 Y-45.151 I-8.299 J-1.137
G1 X70.697 Y-37.342
G3 X67.669 Y-38.153 I-1.28 J-1.28
G1 X65.349 Y-46.812
G2 X62.383 Y-49.164 I-3.067 J0.822
G1 X62.343 Y-49.171
X62.308 Y-49.191
X62.281 Y-49.221
X62.264 Y-49.257
X62.26 Y-49.297
X62.269 Y-49.337
X62.29 Y-49.371
X62.32 Y-49.398
G2 X63.713 Y-52.917 I-1.674 J-2.698
G1 X61.393 Y-61.576
G3 X63.609 Y-63.793 I1.748 J-0.468
G1 X74.277 Y-60.935
G2 X83.064 Y-74.161 I2.168 J-8.091
X26.801 Y-89.237 I-38.064 J29.529
X23.02 Y-86.165 I3.165 J7.756
G3 X22.139 Y-85.993 I-0.526 J-0.355
G1 X21.612 Y-86.348
X21.53 Y-86.404 Z13.008
X21.45 Y-86.458 Z13.031
X21.373 Y-86.509 Z13.069
X21.303 Y-86.557 Z13.121
X21.24 Y-86.599 Z13.186
X21.186 Y-86.635 Z13.262
X21.143 Y-86.665 Z13.347
X21.112 Y-86.686 Z13.439
X21.092 Y-86.699 Z13.536
X21.086 Y-86.703 Z13.635
X21.796 Y-87.756
Z11.635 F50
X21.803 Y-87.752 Z11.536 F2000
X21.822 Y-87.739 Z11.439
X21.853 Y-87.717 Z11.347
X21.897 Y-87.688 Z11.262
X21.95 Y-87.652 Z11.186
X22.013 Y-87.61 Z11.121
X22.084 Y-87.562 Z11.069
X22.16 Y-87.511 Z11.031
X22.24 Y-87.457 Z11.008
X22.323 Y-87.401 Z11
X22.849 Y-87.046
G3 X23.02 Y-86.165 I-0.355 J0.526
G2 X27.797 Y-73.389 I6.945 J4.684
G1 X38.465 Y-70.53
G3 X39.276 Y-67.503 I-0.468 J1.748
G1 X32.937 Y-61.164
G2 X32.384 Y-57.419 I2.245 J2.245
G1 X32.397 Y-57.381
Y-57.341
X32.385 Y-57.302
X32.362 Y-57.27
X32.329 Y-57.246
X32.291 Y-57.234
X32.25 Y-57.235
X32.212 Y-57.248
G2 X28.468 Y-56.694 I-1.5 J2.798
G1 X22.129 Y-50.355
G3 X19.101 Y-51.167 I-1.28 J-1.28
G1 X16.243 Y-61.834
G2 X0.395 Y-62.831 I-8.092 J2.168
X15.471 Y-6.568 I44.605 J18.199
X28.697 Y-15.355 I5.135 J-6.619
G1 X25.839 Y-26.022
G3 X28.055 Y-28.239 I1.748 J-0.468
G1 X36.714 Y-25.918
G2 X40.234 Y-27.311 I0.822 J-3.067
G1 X40.26 Y-27.342
X40.295 Y-27.362
X40.334 Y-27.371
X40.374 Y-27.367
X40.411 Y-27.351
X40.44 Y-27.323
X40.46 Y-27.288
X40.468 Y-27.249
G2 X42.819 Y-24.282 I3.173 J-0.101
G1 X51.478 Y-21.962
G3 X52.29 Y-18.935 I-0.468 J1.748
G1 X44.481 Y-11.125
G2 X51.541 Y3.097 I5.923 J5.923
X92.729 Y-38.09 I-6.541 J-47.729
X78.506 Y-45.151 I-8.299 J-1.137
G1 X70.697 Y-37.342
G3 X67.669 Y-38.153 I-1.28 J-1.28
G1 X65.349 Y-46.812
G2 X62.383 Y-49.164 I-3.067 J0.822
G1 X62.343 Y-49.171
X62.308 Y-49.191
X62.281 Y-49.221
X62.264 Y-49.257
X62.26 Y-49.297
X62.269 Y-49.337
X62.29 Y-49.371
X62.32 Y-49.398
G2 X63.713 Y-52.917 I-1.674 J-2.698
G1 X61.393 Y-61.576
G3 X63.609 Y-63.793 I1.748 J-0.468
G1 X74.277 Y-60.935
G2 X83.064 Y-74.161 I2.168 J-8.091
X26.801 Y-89.237 I-38.064 J29.529
X23.02 Y-86.165 I3.165 J7.756
G3 X22.139 Y-85.993 I-0.526 J-0.355
G1 X21.612 Y-86.348
X21.53 Y-86.404 Z11.008
X21.45 Y-86.458 Z11.031
X21.373 Y-86.509 Z11.069
X21.303 Y-86.557 Z11.121
X21.24 Y-86.599 Z11.186
X21.186 Y-86.635 Z11.262
X21.143 Y-86.665 Z11.347
X21.112 Y-86.686 Z11.439
X21.092 Y-86.699 Z11.536
X21.086 Y-86.703 Z11.635
X21.796 Y-87.756
Z9.635 F50
X21.803 Y-87.752 Z9.536 F2000
X21.822 Y-87.739 Z9.439
X21.853 Y-87.717 Z9.347
X21.897 Y-87.688 Z9.262
X21.95 Y-87.652 Z9.186
X22.013 Y-87.61 Z9.121
X22.084 Y-87.562 Z9.069
X22.16 Y-87.511 Z9.031
X22.24 Y-87.457 Z9.008
X22.323 Y-87.401 Z9
X22.849 Y-87.046
G3 X23.02 Y-86.165 I-0.355 J0.526
G2 X27.797 Y-73.389 I6.945 J4.684
G1 X38.465 Y-70.53
G3 X39.276 Y-67.503 I-0.468 J1.748
G1 X32.937 Y-61.164
G2 X32.384 Y-57.419 I2.245 J2.245
G1 X32.397 Y-57.381
Y-57.341
X32.385 Y-57.302
X32.362 Y-57.27
X32.329 Y-57.246
X32.291 Y-57.234
X32.25 Y-57.235
X32.212 Y-57.248
G2 X28.468 Y-56.694 I-1.5 J2.798
G1 X22.129 Y-50.355
G3 X19.101 Y-51.167 I-1.28 J-1.28
G1 X16.243 Y-61.834
G2 X0.395 Y-62.831 I-8.092 J2.168
X15.471 Y-6.568 I44.605 J18.199
X28.697 Y-15.355 I5.135 J-6.619
G1 X25.839 Y-26.022
G3 X28.055 Y-28.239 I1.748 J-0.468
G1 X36.714 Y-25.918
G2 X40.234 Y-27.311 I0.822 J-3.067
G1 X40.26 Y-27.342
X40.295 Y-27.362
X40.334 Y-27.371
X40.374 Y-27.367
X40.411 Y-27.351
X40.44 Y-27.323
X40.46 Y-27.288
X40.468 Y-27.249
G2 X42.819 Y-24.282 I3.173 J-0.101
G1 X51.478 Y-21.962
G3 X52.29 Y-18.935 I-0.468 J1.748
G1 X44.481 Y-11.125
G2 X51.541 Y3.097 I5.923 J5.923
X92.729 Y-38.09 I-6.541 J-47.729
X78.506 Y-45.151 I-8.299 J-1.137
G1 X70.697 Y-37.342
G3 X67.669 Y-38.153 I-1.28 J-1.28
G1 X65.349 Y-46.812
G2 X62.383 Y-49.164 I-3.067 J0.822
G1 X62.343 Y-49.171
X62.308 Y-49.191
X62.281 Y-49.221
X62.264 Y-49.257
X62.26 Y-49.297
X62.269 Y-49.337
X62.29 Y-49.371
X62.32 Y-49.398
G2 X63.713 Y-52.917 I-1.674 J-2.698
G1 X61.393 Y-61.576
G3 X63.609 Y-63.793 I1.748 J-0.468
G1 X74.277 Y-60.935
G2 X83.064 Y-74.161 I2.168 J-8.091
X26.801 Y-89.237 I-38.064 J29.529
X23.02 Y-86.165 I3.165 J7.756
G3 X22.139 Y-85.993 I-0.526 J-0.355
G1 X21.612 Y-86.348
X21.53 Y-86.404 Z9.008
X21.45 Y-86.458 Z9.031
X21.373 Y-86.509 Z9.069
X21.303 Y-86.557 Z9.121
X21.24 Y-86.599 Z9.186
X21.186 Y-86.635 Z9.262
X21.143 Y-86.665 Z9.347
X21.112 Y-86.686 Z9.439
X21.092 Y-86.699 Z9.536
X21.086 Y-86.703 Z9.635
X21.796 Y-87.756
Z7.635 F50
X21.803 Y-87.752 Z7.536 F2000
X21.822 Y-87.739 Z7.439
X21.853 Y-87.717 Z7.347
X21.897 Y-87.688 Z7.262
X21.95 Y-87.652 Z7.186
X22.013 Y-87.61 Z7.121
X22.084 Y-87.562 Z7.069
X22.16 Y-87.511 Z7.031
X22.24 Y-87.457 Z7.008
X22.323 Y-87.401 Z7
X22.849 Y-87.046
G3 X23.02 Y-86.165 I-0.355 J0.526
G2 X27.797 Y-73.389 I6.945 J4.684
G1 X38.465 Y-70.53
G3 X39.276 Y-67.503 I-0.468 J1.748
G1 X32.937 Y-61.164
G2 X32.384 Y-57.419 I2.245 J2.245
G1 X32.397 Y-57.381
Y-57.341
X32.385 Y-57.302
X32.362 Y-57.27
X32.329 Y-57.246
X32.291 Y-57.234
X32.25 Y-57.235
X32.212 Y-57.248
G2 X28.468 Y-56.694 I-1.5 J2.798
G1 X22.129 Y-50.355
G3 X19.101 Y-51.167 I-1.28 J-1.28
G1 X16.243 Y-61.834
G2 X0.395 Y-62.831 I-8.092 J2.168
X15.471 Y-6.568 I44.605 J18.199
X28.697 Y-15.355 I5.135 J-6.619
G1 X25.839 Y-26.022
G3 X28.055 Y-28.239 I1.748 J-0.468
G1 X36.714 Y-25.918
G2 X40.234 Y-27.311 I0.822 J-3.067
G1 X40.26 Y-27.342
X40.295 Y-27.362
X40.334 Y-27.371
X40.374 Y-27.367
X40.411 Y-27.351
X40.44 Y-27.323
X40.46 Y-27.288
X40.468 Y-27.249
G2 X42.819 Y-24.282 I3.173 J-0.101
G1 X51.478 Y-21.962
G3 X52.29 Y-18.935 I-0.468 J1.748
G1 X44.481 Y-11.125
G2 X51.541 Y3.097 I5.923 J5.923
X92.729 Y-38.09 I-6.541 J-47.729
X78.506 Y-45.151 I-8.299 J-1.137
G1 X70.697 Y-37.342
G3 X67.669 Y-38.153 I-1.28 J-1.28
G1 X65.349 Y-46.812
G2 X62.383 Y-49.164 I-3.067 J0.822
G1 X62.343 Y-49.171
X62.308 Y-49.191
X62.281 Y-49.221
X62.264 Y-49.257
X62.26 Y-49.297
X62.269 Y-49.337
X62.29 Y-49.371
X62.32 Y-49.398
G2 X63.713 Y-52.917 I-1.674 J-2.698
G1 X61.393 Y-61.576
G3 X63.609 Y-63.793 I1.748 J-0.468
G1 X74.277 Y-60.935
G2 X83.064 Y-74.161 I2.168 J-8.091
X26.801 Y-89.237 I-38.064 J29.529
X23.02 Y-86.165 I3.165 J7.756
G3 X22.139 Y-85.993 I-0.526 J-0.355
G1 X21.612 Y-86.348
X21.53 Y-86.404 Z7.008
X21.45 Y-86.458 Z7.031
X21.373 Y-86.509 Z7.069
X21.303 Y-86.557 Z7.121
X21.24 Y-86.599 Z7.186
X21.186 Y-86.635 Z7.262
X21.143 Y-86.665 Z7.347
X21.112 Y-86.686 Z7.439
X21.092 Y-86.699 Z7.536
X21.086 Y-86.703 Z7.635
X21.796 Y-87.756
Z5.635 F50
X21.803 Y-87.752 Z5.536 F2000
X21.822 Y-87.739 Z5.439
X21.853 Y-87.717 Z5.347
X21.897 Y-87.688 Z5.262
X21.95 Y-87.652 Z5.186
X22.013 Y-87.61 Z5.121
X22.084 Y-87.562 Z5.069
X22.16 Y-87.511 Z5.031
X22.24 Y-87.457 Z5.008
X22.323 Y-87.401 Z5
X22.849 Y-87.046
G3 X23.02 Y-86.165 I-0.355 J0.526
G2 X27.797 Y-73.389 I6.945 J4.684
G1 X38.465 Y-70.53
G3 X39.276 Y-67.503 I-0.468 J1.748
G1 X32.937 Y-61.164
G2 X32.384 Y-57.419 I2.245 J2.245
G1 X32.397 Y-57.381
Y-57.341
X32.385 Y-57.302
X32.362 Y-57.27
X32.329 Y-57.246
X32.291 Y-57.234
X32.25 Y-57.235
X32.212 Y-57.248
G2 X28.468 Y-56.694 I-1.5 J2.798
G1 X22.129 Y-50.355
G3 X19.101 Y-51.167 I-1.28 J-1.28
G1 X16.243 Y-61.834
G2 X0.395 Y-62.831 I-8.092 J2.168
X15.471 Y-6.568 I44.605 J18.199
X28.697 Y-15.355 I5.135 J-6.619
G1 X25.839 Y-26.022
G3 X28.055 Y-28.239 I1.748 J-0.468
G1 X36.714 Y-25.918
G2 X40.234 Y-27.311 I0.822 J-3.067
G1 X40.26 Y-27.342
X40.295 Y-27.362
X40.334 Y-27.371
X40.374 Y-27.367
X40.411 Y-27.351
X40.44 Y-27.323
X40.46 Y-27.288
X40.468 Y-27.249
G2 X42.819 Y-24.282 I3.173 J-0.101
G1 X51.478 Y-21.962
G3 X52.29 Y-18.935 I-0.468 J1.748
G1 X44.481 Y-11.125
G2 X51.541 Y3.097 I5.923 J5.923
X92.729 Y-38.09 I-6.541 J-47.729
X78.506 Y-45.151 I-8.299 J-1.137
G1 X70.697 Y-37.342
G3 X67.669 Y-38.153 I-1.28 J-1.28
G1 X65.349 Y-46.812
G2 X62.383 Y-49.164 I-3.067 J0.822
G1 X62.343 Y-49.171
X62.308 Y-49.191
X62.281 Y-49.221
X62.264 Y-49.257
X62.26 Y-49.297
X62.269 Y-49.337
X62.29 Y-49.371
X62.32 Y-49.398
G2 X63.713 Y-52.917 I-1.674 J-2.698
G1 X61.393 Y-61.576
G3 X63.609 Y-63.793 I1.748 J-0.468
G1 X74.277 Y-60.935
G2 X83.064 Y-74.161 I2.168 J-8.091
X26.801 Y-89.237 I-38.064 J29.529
X23.02 Y-86.165 I3.165 J7.756
G3 X22.139 Y-85.993 I-0.526 J-0.355
G1 X21.612 Y-86.348
X21.53 Y-86.404 Z5.008
X21.45 Y-86.458 Z5.031
X21.373 Y-86.509 Z5.069
X21.303 Y-86.557 Z5.121
X21.24 Y-86.599 Z5.186
X21.186 Y-86.635 Z5.262
X21.143 Y-86.665 Z5.347
X21.112 Y-86.686 Z5.439
X21.092 Y-86.699 Z5.536
X21.086 Y-86.703 Z5.635
X21.796 Y-87.756
Z3.635 F50
X21.803 Y-87.752 Z3.536 F2000
X21.822 Y-87.739 Z3.439
X21.853 Y-87.717 Z3.347
X21.897 Y-87.688 Z3.262
X21.95 Y-87.652 Z3.186
X22.013 Y-87.61 Z3.121
X22.084 Y-87.562 Z3.069
X22.16 Y-87.511 Z3.031
X22.24 Y-87.457 Z3.008
X22.323 Y-87.401 Z3
X22.849 Y-87.046
G3 X23.02 Y-86.165 I-0.355 J0.526
G2 X27.797 Y-73.389 I6.945 J4.684
G1 X38.465 Y-70.53
G3 X39.276 Y-67.503 I-0.468 J1.748
G1 X32.937 Y-61.164
G2 X32.384 Y-57.419 I2.245 J2.245
G1 X32.397 Y-57.381
Y-57.341
X32.385 Y-57.302
X32.362 Y-57.27
X32.329 Y-57.246
X32.291 Y-57.234
X32.25 Y-57.235
X32.212 Y-57.248
G2 X28.468 Y-56.694 I-1.5 J2.798
G1 X22.129 Y-50.355
G3 X19.101 Y-51.167 I-1.28 J-1.28
G1 X16.243 Y-61.834
G2 X0.395 Y-62.831 I-8.092 J2.168
X15.471 Y-6.568 I44.605 J18.199
X28.697 Y-15.355 I5.135 J-6.619
G1 X25.839 Y-26.022
G3 X28.055 Y-28.239 I1.748 J-0.468
G1 X36.714 Y-25.918
G2 X40.234 Y-27.311 I0.822 J-3.067
G1 X40.26 Y-27.342
X40.295 Y-27.362
X40.334 Y-27.371
X40.374 Y-27.367
X40.411 Y-27.351
X40.44 Y-27.323
X40.46 Y-27.288
X40.468 Y-27.249
G2 X42.819 Y-24.282 I3.173 J-0.101
G1 X51.478 Y-21.962
G3 X52.29 Y-18.935 I-0.468 J1.748
G1 X44.481 Y-11.125
G2 X51.541 Y3.097 I5.923 J5.923
X92.729 Y-38.09 I-6.541 J-47.729
X78.506 Y-45.151 I-8.299 J-1.137
G1 X70.697 Y-37.342
G3 X67.669 Y-38.153 I-1.28 J-1.28
G1 X65.349 Y-46.812
G2 X62.383 Y-49.164 I-3.067 J0.822
G1 X62.343 Y-49.171
X62.308 Y-49.191
X62.281 Y-49.221
X62.264 Y-49.257
X62.26 Y-49.297
X62.269 Y-49.337
X62.29 Y-49.371
X62.32 Y-49.398
G2 X63.713 Y-52.917 I-1.674 J-2.698
G1 X61.393 Y-61.576
G3 X63.609 Y-63.793 I1.748 J-0.468
G1 X74.277 Y-60.935
G2 X83.064 Y-74.161 I2.168 J-8.091
X26.801 Y-89.237 I-38.064 J29.529
X23.02 Y-86.165 I3.165 J7.756
G3 X22.139 Y-85.993 I-0.526 J-0.355
G1 X21.612 Y-86.348
X21.53 Y-86.404 Z3.008
X21.45 Y-86.458 Z3.031
X21.373 Y-86.509 Z3.069
X21.303 Y-86.557 Z3.121
X21.24 Y-86.599 Z3.186
X21.186 Y-86.635 Z3.262
X21.143 Y-86.665 Z3.347
X21.112 Y-86.686 Z3.439
X21.092 Y-86.699 Z3.536
X21.086 Y-86.703 Z3.635
X21.796 Y-87.756
Z1.635 F50
X21.803 Y-87.752 Z1.536 F2000
X21.822 Y-87.739 Z1.439
X21.853 Y-87.717 Z1.347
X21.897 Y-87.688 Z1.262
X21.95 Y-87.652 Z1.186
X22.013 Y-87.61 Z1.121
X22.084 Y-87.562 Z1.069
X22.16 Y-87.511 Z1.031
X22.24 Y-87.457 Z1.008
X22.323 Y-87.401 Z1
X22.849 Y-87.046
G3 X23.02 Y-86.165 I-0.355 J0.526
G2 X27.797 Y-73.389 I6.945 J4.684
G1 X38.465 Y-70.53
G3 X39.276 Y-67.503 I-0.468 J1.748
G1 X32.937 Y-61.164
G2 X32.384 Y-57.419 I2.245 J2.245
G1 X32.397 Y-57.381
Y-57.341
X32.385 Y-57.302
X32.362 Y-57.27
X32.329 Y-57.246
X32.291 Y-57.234
X32.25 Y-57.235
X32.212 Y-57.248
G2 X28.468 Y-56.694 I-1.5 J2.798
G1 X22.129 Y-50.355
G3 X19.101 Y-51.167 I-1.28 J-1.28
G1 X16.243 Y-61.834
G2 X0.395 Y-62.831 I-8.092 J2.168
X-0.277 Y-61.089 I44.605 J18.199
G1 Z1.5
G2 X-3.004 Y-48.685 I45.277 J16.457
G1 Z1 F50
G2 X6.419 Y-15.781 I48.004 J4.054 F2000
G1 Z1.5
G2 X15.299 Y-6.701 I38.581 J-28.851
G1 Z1 F50
X15.471 Y-6.568 F2000
G2 X28.697 Y-15.355 I5.135 J-6.619
G1 X25.839 Y-26.022
G3 X28.055 Y-28.239 I1.748 J-0.468
G1 X36.714 Y-25.918
G2 X40.234 Y-27.311 I0.822 J-3.067
G1 X40.26 Y-27.342
X40.295 Y-27.362
X40.334 Y-27.371
X40.374 Y-27.367
X40.411 Y-27.351
X40.44 Y-27.323
X40.46 Y-27.288
X40.468 Y-27.249
G2 X42.819 Y-24.282 I3.173 J-0.101
G1 X51.478 Y-21.962
G3 X52.29 Y-18.935 I-0.468 J1.748
G1 X44.481 Y-11.125
G2 X51.541 Y3.097 I5.923 J5.923
X53.103 Y2.857 I-6.541 J-47.729
G1 Z1.5
G2 X65.231 Y-0.91 I-8.103 J-47.489
G1 Z1 F50
G2 X87.992 Y-22.893 I-20.231 J-43.721 F2000
G1 Z1.5
G2 X92.178 Y-34.883 I-42.992 J-21.738
G1 Z1 F50
G2 X92.729 Y-38.09 I-47.178 J-9.748 F2000
X78.506 Y-45.151 I-8.299 J-1.137
G1 X70.697 Y-37.342
G3 X67.669 Y-38.153 I-1.28 J-1.28
G1 X65.349 Y-46.812
G2 X62.383 Y-49.164 I-3.067 J0.822
G1 X62.343 Y-49.171
X62.308 Y-49.191
X62.281 Y-49.221
X62.264 Y-49.257
X62.26 Y-49.297
X62.269 Y-49.337
X62.29 Y-49.371
X62.32 Y-49.398
G2 X63.713 Y-52.917 I-1.674 J-2.698
G1 X61.393 Y-61.576
G3 X63.609 Y-63.793 I1.748 J-0.468
G1 X74.277 Y-60.935
G2 X83.064 Y-74.161 I2.168 J-8.091
X80.983 Y-76.663 I-38.064 J29.529
G1 Z1.5
G2 X71.362 Y-84.953 I-35.983 J32.032
G1 Z1 F50
G2 X40.537 Y-92.599 I-26.363 J40.322 F2000
G1 Z1.5
G2 X28.157 Y-89.766 I4.463 J47.968
G1 Z1 F50
G2 X26.801 Y-89.237 I16.843 J45.135 F2000
X23.02 Y-86.165 I3.165 J7.756
G3 X22.139 Y-85.993 I-0.526 J-0.355
G1 X21.612 Y-86.348
X21.53 Y-86.404 Z1.008
X21.45 Y-86.458 Z1.031
X21.373 Y-86.509 Z1.069
X21.303 Y-86.557 Z1.121
X21.24 Y-86.599 Z1.186
X21.186 Y-86.635 Z1.262
X21.143 Y-86.665 Z1.347
X21.112 Y-86.686 Z1.439
X21.092 Y-86.699 Z1.536
X21.086 Y-86.703 Z1.635
X21.796 Y-87.756
Z0.635 F50
X21.803 Y-87.752 Z0.536 F2000
X21.822 Y-87.739 Z0.439
X21.853 Y-87.717 Z0.347
X21.897 Y-87.688 Z0.262
X21.95 Y-87.652 Z0.186
X22.013 Y-87.61 Z0.121
X22.084 Y-87.562 Z0.069
X22.16 Y-87.511 Z0.031
X22.24 Y-87.457 Z0.008
X22.323 Y-87.401 Z0
X22.849 Y-87.046
G3 X23.02 Y-86.165 I-0.355 J0.526
G2 X27.797 Y-73.389 I6.945 J4.684
G1 X38.465 Y-70.53
G3 X39.276 Y-67.503 I-0.468 J1.748
G1 X32.937 Y-61.164
G2 X32.384 Y-57.419 I2.245 J2.245
G1 X32.397 Y-57.381
Y-57.341
X32.385 Y-57.302
X32.362 Y-57.27
X32.329 Y-57.246
X32.291 Y-57.234
X32.25 Y-57.235
X32.212 Y-57.248
G2 X28.468 Y-56.694 I-1.5 J2.798
G1 X22.129 Y-50.355
G3 X19.101 Y-51.167 I-1.28 J-1.28
G1 X16.243 Y-61.834
G2 X0.395 Y-62.831 I-8.092 J2.168
X-0.277 Y-61.089 I44.605 J18.199
G1 Z1.5
G2 X-3.004 Y-48.685 I45.277 J16.457
G1 Z0 F50
G2 X6.419 Y-15.781 I48.004 J4.054 F2000
G1 Z1.5
G2 X15.299 Y-6.701 I38.581 J-28.851
G1 Z0 F50
X15.471 Y-6.568 F2000
G2 X28.697 Y-15.355 I5.135 J-6.619
G1 X25.839 Y-26.022
G3 X28.055 Y-28.239 I1.748 J-0.468
G1 X36.714 Y-25.918
G2 X40.234 Y-27.311 I0.822 J-3.067
G1 X40.26 Y-27.342
X40.295 Y-27.362
X40.334 Y-27.371
X40.374 Y-27.367
X40.411 Y-27.351
X40.44 Y-27.323
X40.46 Y-27.288
X40.468 Y-27.249
G2 X42.819 Y-24.282 I3.173 J-0.101
G1 X51.478 Y-21.962
G3 X52.29 Y-18.935 I-0.468 J1.748
G1 X44.481 Y-11.125
G2 X51.541 Y3.097 I5.923 J5.923
X53.103 Y2.857 I-6.541 J-47.729
G1 Z1.5
G2 X65.231 Y-0.91 I-8.103 J-47.489
G1 Z0 F50
G2 X87.992 Y-22.893 I-20.231 J-43.721 F2000
G1 Z1.5
G2 X92.178 Y-34.883 I-42.992 J-21.738
G1 Z0 F50
G2 X92.729 Y-38.09 I-47.178 J-9.748 F2000
X78.506 Y-45.151 I-8.299 J-1.137
G1 X70.697 Y-37.342
G3 X67.669 Y-38.153 I-1.28 J-1.28
G1 X65.349 Y-46.812
G2 X62.383 Y-49.164 I-3.067 J0.822
G1 X62.343 Y-49.171
X62.308 Y-49.191
X62.281 Y-49.221
X62.264 Y-49.257
X62.26 Y-49.297
X62.269 Y-49.337
X62.29 Y-49.371
X62.32 Y-49.398
G2 X63.713 Y-52.917 I-1.674 J-2.698
G1 X61.393 Y-61.576
G3 X63.609 Y-63.793 I1.748 J-0.468
G1 X74.277 Y-60.935
G2 X83.064 Y-74.161 I2.168 J-8.091
X80.983 Y-76.663 I-38.064 J29.529
G1 Z1.5
G2 X71.362 Y-84.953 I-35.983 J32.032
G1 Z0 F50
G2 X40.537 Y-92.599 I-26.363 J40.322 F2000
G1 Z1.5
G2 X28.157 Y-89.766 I4.463 J47.968
G1 Z0 F50
G2 X26.801 Y-89.237 I16.843 J45.135 F2000
X23.02 Y-86.165 I3.165 J7.756
G3 X22.139 Y-85.993 I-0.526 J-0.355
G1 X21.612 Y-86.348
X21.53 Y-86.404 Z0.008
X21.45 Y-86.458 Z0.031
X21.373 Y-86.509 Z0.069
X21.303 Y-86.557 Z0.121
X21.24 Y-86.599 Z0.186
X21.186 Y-86.635 Z0.262
X21.143 Y-86.665 Z0.347
X21.112 Y-86.686 Z0.439
X21.092 Y-86.699 Z0.536
X21.086 Y-86.703 Z0.635
G0 Z23


G0 X42.649 Y-26.431
Z23
G1 Z21 F100
Z18.967 F50
X42.647 Y-26.426 Z18.882 F100
X42.643 Y-26.409 Z18.798
X42.602 Y-26.255 Z18.221
X42.555 Y-26.08 Z17.454
X42.507 Y-25.902 Z16.541
X42.459 Y-25.722 Z15.465
X42.411 Y-25.542 Z14.216
X42.364 Y-25.368 Z12.798
X42.319 Y-25.199 Z11.194
X42.276 Y-25.038 Z9.381
X42.237 Y-24.893 Z7.429
X42.202 Y-24.765 Z5.328
X42.173 Y-24.656 Z3.09
X42.17 Y-24.644 Z2.993
X42.163 Y-24.618 Z2.898
X42.152 Y-24.578 Z2.81
X42.138 Y-24.525 Z2.728
X42.121 Y-24.461 Z2.656
X42.101 Y-24.387 Z2.595
X42.079 Y-24.304 Z2.547
X42.055 Y-24.216 Z2.512
X42.03 Y-24.123 Z2.492
X42.005 Y-24.028 Z2.487
X41.98 Y-23.934 Z2.497
X41.955 Y-23.843 Z2.522
X41.932 Y-23.756 Z2.561
X41.911 Y-23.676 Z2.614
X41.892 Y-23.605 Z2.678
X41.875 Y-23.544 Z2.754
X41.862 Y-23.495 Z2.838
X41.853 Y-23.459 Z2.929
X41.847 Y-23.438 Z3.024
X41.845 Y-23.43 Z3.122
Z21
X40.879 Y-29.482
Z18.868 F50
X40.878 Y-29.478 Z18.795 F100
X40.735 Y-28.942 Z13.988
X40.331 Y-27.437 Z0.606
X40.327 Y-27.422 Z0.54
X40.32 Y-27.394 Z0.478
X40.309 Y-27.354 Z0.423
X40.295 Y-27.303 Z0.379
X40.28 Y-27.244 Z0.348
X40.263 Y-27.181 Z0.33
X40.245 Y-27.114 Z0.326
X40.227 Y-27.049 Z0.338
X40.211 Y-26.988 Z0.363
X40.196 Y-26.933 Z0.402
X40.184 Y-26.888 Z0.451
X40.175 Y-26.854 Z0.51
X40.169 Y-26.833 Z0.575
X40.167 Y-26.826 Z0.643
Z18.866
X40.161 Y-26.827 Z18.981
X40.141 Y-26.833 Z19.094
X40.108 Y-26.841 Z19.204
X40.062 Y-26.853 Z19.309
X40.004 Y-26.868 Z19.407
X39.936 Y-26.886 Z19.498
X39.857 Y-26.906 Z19.579
X39.769 Y-26.929 Z19.65
X39.674 Y-26.954 Z19.71
X39.573 Y-26.98 Z19.757
X39.466 Y-27.008 Z19.791
X39.357 Y-27.036 Z19.812
X39.246 Y-27.065 Z19.819
X38.671 Y-27.215
X38.56 Y-27.244 Z19.812
X38.45 Y-27.272 Z19.791
X38.344 Y-27.3 Z19.757
X38.242 Y-27.326 Z19.71
X38.147 Y-27.351 Z19.65
X38.059 Y-27.374 Z19.579
X37.981 Y-27.394 Z19.498
X37.912 Y-27.412 Z19.407
X37.854 Y-27.427 Z19.309
X37.809 Y-27.439 Z19.204
X37.776 Y-27.448 Z19.094
X37.756 Y-27.453 Z18.981
X37.749 Y-27.455 Z18.866
X37.747 Y-27.447 Z18.798
X37.71 Y-27.309 Z18.145
X37.662 Y-27.13 Z17.171
X37.614 Y-26.95 Z16.033
X37.566 Y-26.772 Z14.724
X37.52 Y-26.599 Z13.237
X37.475 Y-26.434 Z11.568
X37.434 Y-26.28 Z9.728
X37.397 Y-26.14 Z7.723
X37.364 Y-26.019 Z5.583
X37.337 Y-25.919 Z3.304
X37.334 Y-25.907 Z3.207
X37.327 Y-25.881 Z3.112
X37.317 Y-25.841 Z3.023
X37.302 Y-25.788 Z2.941
X37.285 Y-25.724 Z2.869
X37.265 Y-25.65 Z2.808
X37.243 Y-25.568 Z2.759
X37.22 Y-25.479 Z2.724
X37.195 Y-25.386 Z2.704
X37.169 Y-25.292 Z2.698
X37.144 Y-25.197 Z2.708
X37.119 Y-25.106 Z2.733
X37.096 Y-25.019 Z2.772
X37.075 Y-24.939 Z2.824
X37.056 Y-24.867 Z2.889
X37.039 Y-24.806 Z2.965
X37.026 Y-24.757 Z3.049
X37.017 Y-24.722 Z3.14
X37.011 Y-24.7 Z3.235
X37.009 Y-24.692 Z3.333
G0 Z23


G0 X30.632 Y-55.658
Z23
G1 Z21 F100
Z19.007 F50
X30.63 Y-55.661 Z18.937 F100
X30.621 Y-55.669 Z18.868
X30.608 Y-55.683 Z18.8
X30.498 Y-55.792 Z18.352
X30.376 Y-55.915 Z17.76
X30.25 Y-56.041 Z17.039
X30.12 Y-56.171 Z16.172
X29.988 Y-56.303 Z15.142
X29.856 Y-56.434 Z13.947
X29.727 Y-56.563 Z12.581
X29.603 Y-56.688 Z11.038
X29.482 Y-56.809 Z9.269
X29.372 Y-56.918 Z7.366
X29.274 Y-57.016 Z5.303
X29.191 Y-57.1 Z3.112
X29.182 Y-57.109 Z3.015
X29.162 Y-57.129 Z2.921
X29.133 Y-57.158 Z2.832
X29.094 Y-57.197 Z2.751
X29.047 Y-57.244 Z2.679
X28.992 Y-57.298 Z2.619
X28.932 Y-57.359 Z2.571
X28.867 Y-57.423 Z2.536
X28.799 Y-57.491 Z2.516
X28.73 Y-57.56 Z2.511
X28.661 Y-57.629 Z2.522
X28.594 Y-57.696 Z2.547
X28.531 Y-57.76 Z2.586
X28.473 Y-57.818 Z2.639
X28.421 Y-57.87 Z2.703
X28.376 Y-57.914 Z2.778
X28.341 Y-57.95 Z2.862
X28.315 Y-57.976 Z2.953
X28.299 Y-57.992 Z3.049
X28.293 Y-57.997 Z3.146
Z21
X33.994 Y-55.831
Z18.872 F50
X33.991 Y-55.834 Z18.799 F100
X32.941 Y-56.884 Z6.03
X32.569 Y-57.256 Z1.655
X32.459 Y-57.366 Z0.558
X32.447 Y-57.378 Z0.492
X32.425 Y-57.4 Z0.431
X32.395 Y-57.43 Z0.378
X32.358 Y-57.467 Z0.335
X32.315 Y-57.51 Z0.305
X32.269 Y-57.557 Z0.288
X32.221 Y-57.605 Z0.285
X32.173 Y-57.652 Z0.297
X32.129 Y-57.696 Z0.323
X32.089 Y-57.736 Z0.362
X32.057 Y-57.768 Z0.412
X32.032 Y-57.793 Z0.47
X32.017 Y-57.808 Z0.535
X32.012 Y-57.813 Z0.602
Z18.857
X32.017 Y-57.818 Z18.972
X32.031 Y-57.834 Z19.085
X32.054 Y-57.859 Z19.195
X32.085 Y-57.894 Z19.299
X32.126 Y-57.938 Z19.398
X32.174 Y-57.99 Z19.488
X32.229 Y-58.05 Z19.57
X32.29 Y-58.117 Z19.641
X32.356 Y-58.189 Z19.7
X32.427 Y-58.267 Z19.747
X32.501 Y-58.348 Z19.782
X32.578 Y-58.431 Z19.802
X32.655 Y-58.516 Z19.809
X33.058 Y-58.956
X33.136 Y-59.04 Z19.802
X33.212 Y-59.124 Z19.782
X33.286 Y-59.205 Z19.747
X33.357 Y-59.282 Z19.7
X33.423 Y-59.355 Z19.641
X33.485 Y-59.421 Z19.57
X33.54 Y-59.481 Z19.488
X33.587 Y-59.534 Z19.398
X33.628 Y-59.578 Z19.299
X33.66 Y-59.612 Z19.195
X33.683 Y-59.638 Z19.085
X33.697 Y-59.653 Z18.972
X33.701 Y-59.658 Z18.857
X33.697 Y-59.662 Z18.797
X33.569 Y-59.791 Z17.843
X33.437 Y-59.922 Z16.706
X33.307 Y-60.052 Z15.399
X33.18 Y-60.179 Z13.914
X33.059 Y-60.3 Z12.246
X32.946 Y-60.413 Z10.409
X32.844 Y-60.515 Z8.407
X32.756 Y-60.604 Z6.274
X32.682 Y-60.677 Z4.003
X32.673 Y-60.686 Z3.906
X32.654 Y-60.705 Z3.811
X32.625 Y-60.734 Z3.722
X32.587 Y-60.773 Z3.64
X32.54 Y-60.82 Z3.568
X32.485 Y-60.874 Z3.507
X32.425 Y-60.934 Z3.458
X32.36 Y-60.999 Z3.423
X32.292 Y-61.067 Z3.403
X32.223 Y-61.136 Z3.397
X32.154 Y-61.205 Z3.407
X32.087 Y-61.273 Z3.432
X32.023 Y-61.336 Z3.471
X31.964 Y-61.395 Z3.524
X31.912 Y-61.447 Z3.588
X31.868 Y-61.492 Z3.664
X31.832 Y-61.527 Z3.748
X31.806 Y-61.554 Z3.839
X31.79 Y-61.57 Z3.934
X31.784 Y-61.575 Z4.032
G0 Z23


G0 X62.017 Y-51.755
Z23
G1 Z21 F100
Z18.961 F50
X62.022 Y-51.757 Z18.88 F100
X62.037 Y-51.761 Z18.8
X62.125 Y-51.784 Z18.452
X62.3 Y-51.831 Z17.671
X62.478 Y-51.879 Z16.743
X62.658 Y-51.927 Z15.648
X62.836 Y-51.975 Z14.388
X63.01 Y-52.022 Z12.946
X63.177 Y-52.066 Z11.327
X63.336 Y-52.109 Z9.514
X63.479 Y-52.147 Z7.544
X63.605 Y-52.181 Z5.444
X63.716 Y-52.211 Z3.073
X63.728 Y-52.214 Z2.975
X63.754 Y-52.221 Z2.881
X63.794 Y-52.232 Z2.792
X63.847 Y-52.246 Z2.711
X63.911 Y-52.263 Z2.638
X63.985 Y-52.283 Z2.577
X64.068 Y-52.305 Z2.529
X64.156 Y-52.329 Z2.494
X64.249 Y-52.354 Z2.474
X64.344 Y-52.379 Z2.469
X64.438 Y-52.404 Z2.479
X64.53 Y-52.429 Z2.503
X64.617 Y-52.452 Z2.543
X64.697 Y-52.473 Z2.595
X64.768 Y-52.493 Z2.66
X64.829 Y-52.509 Z2.735
X64.877 Y-52.522 Z2.819
X64.913 Y-52.531 Z2.91
X64.935 Y-52.537 Z3.006
X64.942 Y-52.539 Z3.103
Z21
X60.17 Y-48.673
Z18.87 F50
X60.174 Y-48.674 Z18.797 F100
X62.195 Y-49.216 Z0.717
X62.21 Y-49.22 Z0.65
X62.238 Y-49.228 Z0.588
X62.278 Y-49.238 Z0.533
X62.329 Y-49.252 Z0.489
X62.388 Y-49.268 Z0.458
X62.452 Y-49.285 Z0.44
X62.518 Y-49.302 Z0.436
X62.583 Y-49.32 Z0.447
X62.644 Y-49.336 Z0.473
X62.699 Y-49.351 Z0.512
X62.744 Y-49.363 Z0.561
X62.778 Y-49.372 Z0.62
X62.799 Y-49.378 Z0.685
X62.807 Y-49.38 Z0.753
Z18.871
X62.808 Y-49.373 Z18.985
X62.813 Y-49.353 Z19.099
X62.822 Y-49.32 Z19.208
X62.833 Y-49.274 Z19.313
X62.848 Y-49.216 Z19.412
X62.865 Y-49.148 Z19.502
X62.885 Y-49.069 Z19.584
X62.907 Y-48.981 Z19.655
X62.931 Y-48.885 Z19.714
X62.957 Y-48.784 Z19.761
X62.984 Y-48.677 Z19.795
X63.011 Y-48.568 Z19.816
X63.039 Y-48.456 Z19.823
X63.184 Y-47.88
X63.212 Y-47.768 Z19.816
X63.24 Y-47.659 Z19.795
X63.267 Y-47.552 Z19.761
X63.292 Y-47.451 Z19.714
X63.316 Y-47.355 Z19.655
X63.338 Y-47.267 Z19.584
X63.358 Y-47.188 Z19.502
X63.376 Y-47.12 Z19.412
X63.39 Y-47.062 Z19.313
X63.402 Y-47.016 Z19.208
X63.41 Y-46.983 Z19.099
X63.415 Y-46.963 Z18.985
X63.417 Y-46.956 Z18.871
X63.419 Y-46.957 Z18.835
X63.425 Y-46.958 Z18.799
X63.598 Y-47.005 Z18.019
X63.777 Y-47.053 Z17.076
X63.957 Y-47.101 Z15.974
X64.137 Y-47.149 Z14.696
X64.312 Y-47.196 Z13.238
X64.48 Y-47.241 Z11.601
X64.637 Y-47.283 Z9.792
X64.779 Y-47.321 Z7.823
X64.904 Y-47.355 Z5.704
X65.014 Y-47.384 Z3.345
X65.026 Y-47.387 Z3.248
X65.052 Y-47.394 Z3.153
X65.092 Y-47.405 Z3.064
X65.144 Y-47.419 Z2.983
X65.209 Y-47.436 Z2.911
X65.283 Y-47.456 Z2.849
X65.365 Y-47.478 Z2.801
X65.454 Y-47.502 Z2.766
X65.546 Y-47.527 Z2.746
X65.641 Y-47.552 Z2.741
X65.735 Y-47.577 Z2.75
X65.827 Y-47.602 Z2.775
X65.914 Y-47.625 Z2.815
X65.994 Y-47.647 Z2.867
X66.065 Y-47.666 Z2.932
X66.126 Y-47.682 Z3.007
X66.175 Y-47.695 Z3.091
X66.211 Y-47.705 Z3.182
X66.232 Y-47.711 Z3.278
X66.24 Y-47.713 Z3.375
G0 Z23
M5
M30
