(trinode_outline)
(T5 D=6.35 CR=0 - ZMIN=0 - flat end mill)
G90 G94
G17
G21
(-Attention- Property Safe Retracts is set to Clearance Height.)
(Ensure the clearance height will clear the part and or fixtures.)
(Raise the Z-axis to a safe height before starting the program.)
(When using Fusion 360 for Personal Use, the feedrate of)
(rapid moves is reduced to match the feedrate of cutting)
(moves, which can increase machining time. Unrestricted rapid)
(moves are available with a Fusion 360 Subscription.)

(2D Contour2)
T5 M6
S5000 M3
G17 G90 G94
G54
G0 X21.796 Y-87.756
Z23
G1 Z21 F2000
Z19.1 F50
Z17.635
X21.803 Y-87.752 Z17.536 F2000
X21.822 Y-87.739 Z17.439
X21.853 Y-87.717 Z17.347
X21.897 Y-87.688 Z17.262
X21.95 Y-87.652 Z17.186
X22.013 Y-87.61 Z17.121
X22.084 Y-87.562 Z17.069
X22.16 Y-87.511 Z17.031
X22.24 Y-87.457 Z17.008
X22.323 Y-87.401 Z17
X22.849 Y-87.046
G3 X23.02 Y-86.165 I-0.355 J0.526
G2 X27.797 Y-73.389 I6.945 J4.684
G1 X38.465 Y-70.53
G3 X39.276 Y-67.503 I-0.468 J1.748
G1 X32.937 Y-61.164
G2 X32.384 Y-57.419 I2.245 J2.245
G1 X32.397 Y-57.381
Y-57.341
X32.385 Y-57.302
X32.362 Y-57.27
X32.329 Y-57.246
X32.291 Y-57.234
X32.25 Y-57.235
X32.212 Y-57.248
G2 X28.468 Y-56.694 I-1.5 J2.798
G1 X22.129 Y-50.355
G3 X19.101 Y-51.167 I-1.28 J-1.28
G1 X16.243 Y-61.834
G2 X0.395 Y-62.831 I-8.092 J2.168
X15.471 Y-6.568 I44.605 J18.199
X28.697 Y-15.355 I5.135 J-6.619
G1 X25.839 Y-26.022
G3 X28.055 Y-28.239 I1.748 J-0.468
G1 X36.714 Y-25.918
G2 X40.234 Y-27.311 I0.822 J-3.067
G1 X40.26 Y-27.342
X40.295 Y-27.362
X40.334 Y-27.371
X40.374 Y-27.367
X40.411 Y-27.351
X40.44 Y-27.323
X40.46 Y-27.288
X40.468 Y-27.249
G2 X42.819 Y-24.282 I3.173 J-0.101
G1 X51.478 Y-21.962
G3 X52.29 Y-18.935 I-0.468 J1.748
G1 X44.481 Y-11.125
G2 X51.541 Y3.097 I5.923 J5.923
X92.729 Y-38.09 I-6.541 J-47.729
X78.506 Y-45.151 I-8.299 J-1.137
G1 X70.697 Y-37.342
G3 X67.669 Y-38.153 I-1.28 J-1.28
G1 X65.349 Y-46.812
G2 X62.383 Y-49.164 I-3.067 J0.822
G1 X62.343 Y-49.171
X62.308 Y-49.191
X62.281 Y-49.221
X62.264 Y-49.257
X62.26 Y-49.297
X62.269 Y-49.337
X62.29 Y-49.371
X62.32 Y-49.398
G2 X63.713 Y-52.917 I-1.674 J-2.698
G1 X61.393 Y-61.576
G3 X63.609 Y-63.793 I1.748 J-0.468
G1 X74.277 Y-60.935
G2 X83.064 Y-74.161 I2.168 J-8.091
X26.801 Y-89.237 I-38.064 J29.529
X23.02 Y-86.165 I3.165 J7.756
G3 X22.139 Y-85.993 I-0.526 J-0.355
G1 X21.612 Y-86.348
X21.53 Y-86.404 Z17.008
X21.45 Y-86.458 Z17.031
X21.373 Y-86.509 Z17.069
X21.303 Y-86.557 Z17.121
X21.24 Y-86.599 Z17.186
X21.186 Y-86.635 Z17.262
X21.143 Y-86.665 Z17.347
X21.112 Y-86.686 Z17.439
X21.092 Y-86.699 Z17.536
X21.086 Y-86.703 Z17.635
X21.796 Y-87.756
Z15.635 F50
X21.803 Y-87.752 Z15.536 F2000
X21.822 Y-87.739 Z15.439
X21.853 Y-87.717 Z15.347
X21.897 Y-87.688 Z15.262
X21.95 Y-87.652 Z15.186
X22.013 Y-87.61 Z15.121
X22.084 Y-87.562 Z15.069
X22.16 Y-87.511 Z15.031
X22.24 Y-87.457 Z15.008
X22.323 Y-87.401 Z15
X22.849 Y-87.046
G3 X23.02 Y-86.165 I-0.355 J0.526
G2 X27.797 Y-73.389 I6.945 J4.684
G1 X38.465 Y-70.53
G3 X39.276 Y-67.503 I-0.468 J1.748
G1 X32.937 Y-61.164
G2 X32.384 Y-57.419 I2.245 J2.245
G1 X32.397 Y-57.381
Y-57.341
X32.385 Y-57.302
X32.362 Y-57.27
X32.329 Y-57.246
X32.291 Y-57.234
X32.25 Y-57.235
X32.212 Y-57.248
G2 X28.468 Y-56.694 I-1.5 J2.798
G1 X22.129 Y-50.355
G3 X19.101 Y-51.167 I-1.28 J-1.28
G1 X16.243 Y-61.834
G2 X0.395 Y-62.831 I-8.092 J2.168
X15.471 Y-6.568 I44.605 J18.199
X28.697 Y-15.355 I5.135 J-6.619
G1 X25.839 Y-26.022
G3 X28.055 Y-28.239 I1.748 J-0.468
G1 X36.714 Y-25.918
G2 X40.234 Y-27.311 I0.822 J-3.067
G1 X40.26 Y-27.342
X40.295 Y-27.362
X40.334 Y-27.371
X40.374 Y-27.367
X40.411 Y-27.351
X40.44 Y-27.323
X40.46 Y-27.288
X40.468 Y-27.249
G2 X42.819 Y-24.282 I3.173 J-0.101
G1 X51.478 Y-21.962
G3 X52.29 Y-18.935 I-0.468 J1.748
G1 X44.481 Y-11.125
G2 X51.541 Y3.097 I5.923 J5.923
X92.729 Y-38.09 I-6.541 J-47.729
X78.506 Y-45.151 I-8.299 J-1.137
G1 X70.697 Y-37.342
G3 X67.669 Y-38.153 I-1.28 J-1.28
G1 X65.349 Y-46.812
G2 X62.383 Y-49.164 I-3.067 J0.822
G1 X62.343 Y-49.171
X62.308 Y-49.191
X62.281 Y-49.221
X62.264 Y-49.257
X62.26 Y-49.297
X62.269 Y-49.337
X62.29 Y-49.371
X62.32 Y-49.398
G2 X63.713 Y-52.917 I-1.674 J-2.698
G1 X61.393 Y-61.576
G3 X63.609 Y-63.793 I1.748 J-0.468
G1 X74.277 Y-60.935
G2 X83.064 Y-74.161 I2.168 J-8.091
X26.801 Y-89.237 I-38.064 J29.529
X23.02 Y-86.165 I3.165 J7.756
G3 X22.139 Y-85.993 I-0.526 J-0.355
G1 X21.612 Y-86.348
X21.53 Y-86.404 Z15.008
X21.45 Y-86.458 Z15.031
X21.373 Y-86.509 Z15.069
X21.303 Y-86.557 Z15.121
X21.24 Y-86.599 Z15.186
X21.186 Y-86.635 Z15.262
X21.143 Y-86.665 Z15.347
X21.112 Y-86.686 Z15.439
X21.092 Y-86.699 Z15.536
X21.086 Y-86.703 Z15.635
X21.796 Y-87.756
Z13.635 F50
X21.803 Y-87.752 Z13.536 F2000
X21.822 Y-87.739 Z13.439
X21.853 Y-87.717 Z13.347
X21.897 Y-87.688 Z13.262
X21.95 Y-87.652 Z13.186
X22.013 Y-87.61 Z13.121
X22.084 Y-87.562 Z13.069
X22.16 Y-87.511 Z13.031
X22.24 Y-87.457 Z13.008
X22.323 Y-87.401 Z13
X22.849 Y-87.046
G3 X23.02 Y-86.165 I-0.355 J0.526
G2 X27.797 Y-73.389 I6.945 J4.684
G1 X38.465 Y-70.53
G3 X39.276 Y-67.503 I-0.468 J1.748
G1 X32.937 Y-61.164
G2 X32.384 Y-57.419 I2.245 J2.245
G1 X32.397 Y-57.381
Y-57.341
X32.385 Y-57.302
X32.362 Y-57.27
X32.329 Y-57.246
X32.291 Y-57.234
X32.25 Y-57.235
X32.212 Y-57.248
G2 X28.468 Y-56.694 I-1.5 J2.798
G1 X22.129 Y-50.355
G3 X19.101 Y-51.167 I-1.28 J-1.28
G1 X16.243 Y-61.834
G2 X0.395 Y-62.831 I-8.092 J2.168
X15.471 Y-6.568 I44.605 J18.199
X28.697 Y-15.355 I5.135 J-6.619
G1 X25.839 Y-26.022
G3 X28.055 Y-28.239 I1.748 J-0.468
G1 X36.714 Y-25.918
G2 X40.234 Y-27.311 I0.822 J-3.067
G1 X40.26 Y-27.342
X40.295 Y-27.362
X40.334 Y-27.371
X40.374 Y-27.367
X40.411 Y-27.351
X40.44 Y-27.323
X40.46 Y-27.288
X40.468 Y-27.249
G2 X42.819 Y-24.282 I3.173 J-0.101
G1 X51.478 Y-21.962
G3 X52.29 Y-18.935 I-0.468 J1.748
G1 X44.481 Y-11.125
G2 X51.541 Y3.097 I5.923 J5.923
X92.729 Y-38.09 I-6.541 J-47.729
X78.506 Y-45.151 I-8.299 J-1.137
G1 X70.697 Y-37.342
G3 X67.669 Y-38.153 I-1.28 J-1.28
G1 X65.349 Y-46.812
G2 X62.383 Y-49.164 I-3.067 J0.822
G1 X62.343 Y-49.171
X62.308 Y-49.191
X62.281 Y-49.221
X62.264 Y-49.257
X62.26 Y-49.297
X62.269 Y-49.337
X62.29 Y-49.371
X62.32 Y-49.398
G2 X63.713 Y-52.917 I-1.674 J-2.698
G1 X61.393 Y-61.576
G3 X63.609 Y-63.793 I1.748 J-0.468
G1 X74.277 Y-60.935
G2 X83.064 Y-74.161 I2.168 J-8.091
X26.801 Y-89.237 I-38.064 J29.529
X23.02 Y-86.165 I3.165 J7.756
G3 X22.139 Y-85.993 I-0.526 J-0.355
G1 X21.612 Y-86.348
X21.53 Y-86.404 Z13.008
X21.45 Y-86.458 Z13.031
X21.373 Y-86.509 Z13.069
X21.303 Y-86.557 Z13.121
X21.24 Y-86.599 Z13.186
X21.186 Y-86.635 Z13.262
X21.143 Y-86.665 Z13.347
X21.112 Y-86.686 Z13.439
X21.092 Y-86.699 Z13.536
X21.086 Y-86.703 Z13.635
X21.796 Y-87.756
Z11.635 F50
X21.803 Y-87.752 Z11.536 F2000
X21.822 Y-87.739 Z11.439
X21.853 Y-87.717 Z11.347
X21.897 Y-87.688 Z11.262
X21.95 Y-87.652 Z11.186
X22.013 Y-87.61 Z11.121
X22.084 Y-87.562 Z11.069
X22.16 Y-87.511 Z11.031
X22.24 Y-87.457 Z11.008
X22.323 Y-87.401 Z11
X22.849 Y-87.046
G3 X23.02 Y-86.165 I-0.355 J0.526
G2 X27.797 Y-73.389 I6.945 J4.684
G1 X38.465 Y-70.53
G3 X39.276 Y-67.503 I-0.468 J1.748
G1 X32.937 Y-61.164
G2 X32.384 Y-57.419 I2.245 J2.245
G1 X32.397 Y-57.381
Y-57.341
X32.385 Y-57.302
X32.362 Y-57.27
X32.329 Y-57.246
X32.291 Y-57.234
X32.25 Y-57.235
X32.212 Y-57.248
G2 X28.468 Y-56.694 I-1.5 J2.798
G1 X22.129 Y-50.355
G3 X19.101 Y-51.167 I-1.28 J-1.28
G1 X16.243 Y-61.834
G2 X0.395 Y-62.831 I-8.092 J2.168
X15.471 Y-6.568 I44.605 J18.199
X28.697 Y-15.355 I5.135 J-6.619
G1 X25.839 Y-26.022
G3 X28.055 Y-28.239 I1.748 J-0.468
G1 X36.714 Y-25.918
G2 X40.234 Y-27.311 I0.822 J-3.067
G1 X40.26 Y-27.342
X40.295 Y-27.362
X40.334 Y-27.371
X40.374 Y-27.367
X40.411 Y-27.351
X40.44 Y-27.323
X40.46 Y-27.288
X40.468 Y-27.249
G2 X42.819 Y-24.282 I3.173 J-0.101
G1 X51.478 Y-21.962
G3 X52.29 Y-18.935 I-0.468 J1.748
G1 X44.481 Y-11.125
G2 X51.541 Y3.097 I5.923 J5.923
X92.729 Y-38.09 I-6.541 J-47.729
X78.506 Y-45.151 I-8.299 J-1.137
G1 X70.697 Y-37.342
G3 X67.669 Y-38.153 I-1.28 J-1.28
G1 X65.349 Y-46.812
G2 X62.383 Y-49.164 I-3.067 J0.822
G1 X62.343 Y-49.171
X62.308 Y-49.191
X62.281 Y-49.221
X62.264 Y-49.257
X62.26 Y-49.297
X62.269 Y-49.337
X62.29 Y-49.371
X62.32 Y-49.398
G2 X63.713 Y-52.917 I-1.674 J-2.698
G1 X61.393 Y-61.576
G3 X63.609 Y-63.793 I1.748 J-0.468
G1 X74.277 Y-60.935
G2 X83.064 Y-74.161 I2.168 J-8.091
X26.801 Y-89.237 I-38.064 J29.529
X23.02 Y-86.165 I3.165 J7.756
G3 X22.139 Y-85.993 I-0.526 J-0.355
G1 X21.612 Y-86.348
X21.53 Y-86.404 Z11.008
X21.45 Y-86.458 Z11.031
X21.373 Y-86.509 Z11.069
X21.303 Y-86.557 Z11.121
X21.24 Y-86.599 Z11.186
X21.186 Y-86.635 Z11.262
X21.143 Y-86.665 Z11.347
X21.112 Y-86.686 Z11.439
X21.092 Y-86.699 Z11.536
X21.086 Y-86.703 Z11.635
X21.796 Y-87.756
Z9.635 F50
X21.803 Y-87.752 Z9.536 F2000
X21.822 Y-87.739 Z9.439
X21.853 Y-87.717 Z9.347
X21.897 Y-87.688 Z9.262
X21.95 Y-87.652 Z9.186
X22.013 Y-87.61 Z9.121
X22.084 Y-87.562 Z9.069
X22.16 Y-87.511 Z9.031
X22.24 Y-87.457 Z9.008
X22.323 Y-87.401 Z9
X22.849 Y-87.046
G3 X23.02 Y-86.165 I-0.355 J0.526
G2 X27.797 Y-73.389 I6.945 J4.684
G1 X38.465 Y-70.53
G3 X39.276 Y-67.503 I-0.468 J1.748
G1 X32.937 Y-61.164
G2 X32.384 Y-57.419 I2.245 J2.245
G1 X32.397 Y-57.381
Y-57.341
X32.385 Y-57.302
X32.362 Y-57.27
X32.329 Y-57.246
X32.291 Y-57.234
X32.25 Y-57.235
X32.212 Y-57.248
G2 X28.468 Y-56.694 I-1.5 J2.798
G1 X22.129 Y-50.355
G3 X19.101 Y-51.167 I-1.28 J-1.28
G1 X16.243 Y-61.834
G2 X0.395 Y-62.831 I-8.092 J2.168
X15.471 Y-6.568 I44.605 J18.199
X28.697 Y-15.355 I5.135 J-6.619
G1 X25.839 Y-26.022
G3 X28.055 Y-28.239 I1.748 J-0.468
G1 X36.714 Y-25.918
G2 X40.234 Y-27.311 I0.822 J-3.067
G1 X40.26 Y-27.342
X40.295 Y-27.362
X40.334 Y-27.371
X40.374 Y-27.367
X40.411 Y-27.351
X40.44 Y-27.323
X40.46 Y-27.288
X40.468 Y-27.249
G2 X42.819 Y-24.282 I3.173 J-0.101
G1 X51.478 Y-21.962
G3 X52.29 Y-18.935 I-0.468 J1.748
G1 X44.481 Y-11.125
G2 X51.541 Y3.097 I5.923 J5.923
X92.729 Y-38.09 I-6.541 J-47.729
X78.506 Y-45.151 I-8.299 J-1.137
G1 X70.697 Y-37.342
G3 X67.669 Y-38.153 I-1.28 J-1.28
G1 X65.349 Y-46.812
G2 X62.383 Y-49.164 I-3.067 J0.822
G1 X62.343 Y-49.171
X62.308 Y-49.191
X62.281 Y-49.221
X62.264 Y-49.257
X62.26 Y-49.297
X62.269 Y-49.337
X62.29 Y-49.371
X62.32 Y-49.398
G2 X63.713 Y-52.917 I-1.674 J-2.698
G1 X61.393 Y-61.576
G3 X63.609 Y-63.793 I1.748 J-0.468
G1 X74.277 Y-60.935
G2 X83.064 Y-74.161 I2.168 J-8.091
X26.801 Y-89.237 I-38.064 J29.529
X23.02 Y-86.165 I3.165 J7.756
G3 X22.139 Y-85.993 I-0.526 J-0.355
G1 X21.612 Y-86.348
X21.53 Y-86.404 Z9.008
X21.45 Y-86.458 Z9.031
X21.373 Y-86.509 Z9.069
X21.303 Y-86.557 Z9.121
X21.24 Y-86.599 Z9.186
X21.186 Y-86.635 Z9.262
X21.143 Y-86.665 Z9.347
X21.112 Y-86.686 Z9.439
X21.092 Y-86.699 Z9.536
X21.086 Y-86.703 Z9.635
X21.796 Y-87.756
Z7.635 F50
X21.803 Y-87.752 Z7.536 F2000
X21.822 Y-87.739 Z7.439
X21.853 Y-87.717 Z7.347
X21.897 Y-87.688 Z7.262
X21.95 Y-87.652 Z7.186
X22.013 Y-87.61 Z7.121
X22.084 Y-87.562 Z7.069
X22.16 Y-87.511 Z7.031
X22.24 Y-87.457 Z7.008
X22.323 Y-87.401 Z7
X22.849 Y-87.046
G3 X23.02 Y-86.165 I-0.355 J0.526
G2 X27.797 Y-73.389 I6.945 J4.684
G1 X38.465 Y-70.53
G3 X39.276 Y-67.503 I-0.468 J1.748
G1 X32.937 Y-61.164
G2 X32.384 Y-57.419 I2.245 J2.245
G1 X32.397 Y-57.381
Y-57.341
X32.385 Y-57.302
X32.362 Y-57.27
X32.329 Y-57.246
X32.291 Y-57.234
X32.25 Y-57.235
X32.212 Y-57.248
G2 X28.468 Y-56.694 I-1.5 J2.798
G1 X22.129 Y-50.355
G3 X19.101 Y-51.167 I-1.28 J-1.28
G1 X16.243 Y-61.834
G2 X0.395 Y-62.831 I-8.092 J2.168
X15.471 Y-6.568 I44.605 J18.199
X28.697 Y-15.355 I5.135 J-6.619
G1 X25.839 Y-26.022
G3 X28.055 Y-28.239 I1.748 J-0.468
G1 X36.714 Y-25.918
G2 X40.234 Y-27.311 I0.822 J-3.067
G1 X40.26 Y-27.342
X40.295 Y-27.362
X40.334 Y-27.371
X40.374 Y-27.367
X40.411 Y-27.351
X40.44 Y-27.323
X40.46 Y-27.288
X40.468 Y-27.249
G2 X42.819 Y-24.282 I3.173 J-0.101
G1 X51.478 Y-21.962
G3 X52.29 Y-18.935 I-0.468 J1.748
G1 X44.481 Y-11.125
G2 X51.541 Y3.097 I5.923 J5.923
X92.729 Y-38.09 I-6.541 J-47.729
X78.506 Y-45.151 I-8.299 J-1.137
G1 X70.697 Y-37.342
G3 X67.669 Y-38.153 I-1.28 J-1.28
G1 X65.349 Y-46.812
G2 X62.383 Y-49.164 I-3.067 J0.822
G1 X62.343 Y-49.171
X62.308 Y-49.191
X62.281 Y-49.221
X62.264 Y-49.257
X62.26 Y-49.297
X62.269 Y-49.337
X62.29 Y-49.371
X62.32 Y-49.398
G2 X63.713 Y-52.917 I-1.674 J-2.698
G1 X61.393 Y-61.576
G3 X63.609 Y-63.793 I1.748 J-0.468
G1 X74.277 Y-60.935
G2 X83.064 Y-74.161 I2.168 J-8.091
X26.801 Y-89.237 I-38.064 J29.529
X23.02 Y-86.165 I3.165 J7.756
G3 X22.139 Y-85.993 I-0.526 J-0.355
G1 X21.612 Y-86.348
X21.53 Y-86.404 Z7.008
X21.45 Y-86.458 Z7.031
X21.373 Y-86.509 Z7.069
X21.303 Y-86.557 Z7.121
X21.24 Y-86.599 Z7.186
X21.186 Y-86.635 Z7.262
X21.143 Y-86.665 Z7.347
X21.112 Y-86.686 Z7.439
X21.092 Y-86.699 Z7.536
X21.086 Y-86.703 Z7.635
X21.796 Y-87.756
Z5.635 F50
X21.803 Y-87.752 Z5.536 F2000
X21.822 Y-87.739 Z5.439
X21.853 Y-87.717 Z5.347
X21.897 Y-87.688 Z5.262
X21.95 Y-87.652 Z5.186
X22.013 Y-87.61 Z5.121
X22.084 Y-87.562 Z5.069
X22.16 Y-87.511 Z5.031
X22.24 Y-87.457 Z5.008
X22.323 Y-87.401 Z5
X22.849 Y-87.046
G3 X23.02 Y-86.165 I-0.355 J0.526
G2 X27.797 Y-73.389 I6.945 J4.684
G1 X38.465 Y-70.53
G3 X39.276 Y-67.503 I-0.468 J1.748
G1 X32.937 Y-61.164
G2 X32.384 Y-57.419 I2.245 J2.245
G1 X32.397 Y-57.381
Y-57.341
X32.385 Y-57.302
X32.362 Y-57.27
X32.329 Y-57.246
X32.291 Y-57.234
X32.25 Y-57.235
X32.212 Y-57.248
G2 X28.468 Y-56.694 I-1.5 J2.798
G1 X22.129 Y-50.355
G3 X19.101 Y-51.167 I-1.28 J-1.28
G1 X16.243 Y-61.834
G2 X0.395 Y-62.831 I-8.092 J2.168
X15.471 Y-6.568 I44.605 J18.199
X28.697 Y-15.355 I5.135 J-6.619
G1 X25.839 Y-26.022
G3 X28.055 Y-28.239 I1.748 J-0.468
G1 X36.714 Y-25.918
G2 X40.234 Y-27.311 I0.822 J-3.067
G1 X40.26 Y-27.342
X40.295 Y-27.362
X40.334 Y-27.371
X40.374 Y-27.367
X40.411 Y-27.351
X40.44 Y-27.323
X40.46 Y-27.288
X40.468 Y-27.249
G2 X42.819 Y-24.282 I3.173 J-0.101
G1 X51.478 Y-21.962
G3 X52.29 Y-18.935 I-0.468 J1.748
G1 X44.481 Y-11.125
G2 X51.541 Y3.097 I5.923 J5.923
X92.729 Y-38.09 I-6.541 J-47.729
X78.506 Y-45.151 I-8.299 J-1.137
G1 X70.697 Y-37.342
G3 X67.669 Y-38.153 I-1.28 J-1.28
G1 X65.349 Y-46.812
G2 X62.383 Y-49.164 I-3.067 J0.822
G1 X62.343 Y-49.171
X62.308 Y-49.191
X62.281 Y-49.221
X62.264 Y-49.257
X62.26 Y-49.297
X62.269 Y-49.337
X62.29 Y-49.371
X62.32 Y-49.398
G2 X63.713 Y-52.917 I-1.674 J-2.698
G1 X61.393 Y-61.576
G3 X63.609 Y-63.793 I1.748 J-0.468
G1 X74.277 Y-60.935
G2 X83.064 Y-74.161 I2.168 J-8.091
X26.801 Y-89.237 I-38.064 J29.529
X23.02 Y-86.165 I3.165 J7.756
G3 X22.139 Y-85.993 I-0.526 J-0.355
G1 X21.612 Y-86.348
X21.53 Y-86.404 Z5.008
X21.45 Y-86.458 Z5.031
X21.373 Y-86.509 Z5.069
X21.303 Y-86.557 Z5.121
X21.24 Y-86.599 Z5.186
X21.186 Y-86.635 Z5.262
X21.143 Y-86.665 Z5.347
X21.112 Y-86.686 Z5.439
X21.092 Y-86.699 Z5.536
X21.086 Y-86.703 Z5.635
X21.796 Y-87.756
Z3.635 F50
X21.803 Y-87.752 Z3.536 F2000
X21.822 Y-87.739 Z3.439
X21.853 Y-87.717 Z3.347
X21.897 Y-87.688 Z3.262
X21.95 Y-87.652 Z3.186
X22.013 Y-87.61 Z3.121
X22.084 Y-87.562 Z3.069
X22.16 Y-87.511 Z3.031
X22.24 Y-87.457 Z3.008
X22.323 Y-87.401 Z3
X22.849 Y-87.046
G3 X23.02 Y-86.165 I-0.355 J0.526
G2 X27.797 Y-73.389 I6.945 J4.684
G1 X38.465 Y-70.53
G3 X39.276 Y-67.503 I-0.468 J1.748
G1 X32.937 Y-61.164
G2 X32.384 Y-57.419 I2.245 J2.245
G1 X32.397 Y-57.381
Y-57.341
X32.385 Y-57.302
X32.362 Y-57.27
X32.329 Y-57.246
X32.291 Y-57.234
X32.25 Y-57.235
X32.212 Y-57.248
G2 X28.468 Y-56.694 I-1.5 J2.798
G1 X22.129 Y-50.355
G3 X19.101 Y-51.167 I-1.28 J-1.28
G1 X16.243 Y-61.834
G2 X0.395 Y-62.831 I-8.092 J2.168
X15.471 Y-6.568 I44.605 J18.199
X28.697 Y-15.355 I5.135 J-6.619
G1 X25.839 Y-26.022
G3 X28.055 Y-28.239 I1.748 J-0.468
G1 X36.714 Y-25.918
G2 X40.234 Y-27.311 I0.822 J-3.067
G1 X40.26 Y-27.342
X40.295 Y-27.362
X40.334 Y-27.371
X40.374 Y-27.367
X40.411 Y-27.351
X40.44 Y-27.323
X40.46 Y-27.288
X40.468 Y-27.249
G2 X42.819 Y-24.282 I3.173 J-0.101
G1 X51.478 Y-21.962
G3 X52.29 Y-18.935 I-0.468 J1.748
G1 X44.481 Y-11.125
G2 X51.541 Y3.097 I5.923 J5.923
X92.729 Y-38.09 I-6.541 J-47.729
X78.506 Y-45.151 I-8.299 J-1.137
G1 X70.697 Y-37.342
G3 X67.669 Y-38.153 I-1.28 J-1.28
G1 X65.349 Y-46.812
G2 X62.383 Y-49.164 I-3.067 J0.822
G1 X62.343 Y-49.171
X62.308 Y-49.191
X62.281 Y-49.221
X62.264 Y-49.257
X62.26 Y-49.297
X62.269 Y-49.337
X62.29 Y-49.371
X62.32 Y-49.398
G2 X63.713 Y-52.917 I-1.674 J-2.698
G1 X61.393 Y-61.576
G3 X63.609 Y-63.793 I1.748 J-0.468
G1 X74.277 Y-60.935
G2 X83.064 Y-74.161 I2.168 J-8.091
X26.801 Y-89.237 I-38.064 J29.529
X23.02 Y-86.165 I3.165 J7.756
G3 X22.139 Y-85.993 I-0.526 J-0.355
G1 X21.612 Y-86.348
X21.53 Y-86.404 Z3.008
X21.45 Y-86.458 Z3.031
X21.373 Y-86.509 Z3.069
X21.303 Y-86.557 Z3.121
X21.24 Y-86.599 Z3.186
X21.186 Y-86.635 Z3.262
X21.143 Y-86.665 Z3.347
X21.112 Y-86.686 Z3.439
X21.092 Y-86.699 Z3.536
X21.086 Y-86.703 Z3.635
X21.796 Y-87.756
Z1.635 F50
X21.803 Y-87.752 Z1.536 F2000
X21.822 Y-87.739 Z1.439
X21.853 Y-87.717 Z1.347
X21.897 Y-87.688 Z1.262
X21.95 Y-87.652 Z1.186
X22.013 Y-87.61 Z1.121
X22.084 Y-87.562 Z1.069
X22.16 Y-87.511 Z1.031
X22.24 Y-87.457 Z1.008
X22.323 Y-87.401 Z1
X22.849 Y-87.046
G3 X23.02 Y-86.165 I-0.355 J0.526
G2 X27.797 Y-73.389 I6.945 J4.684
G1 X38.465 Y-70.53
G3 X39.276 Y-67.503 I-0.468 J1.748
G1 X32.937 Y-61.164
G2 X32.384 Y-57.419 I2.245 J2.245
G1 X32.397 Y-57.381
Y-57.341
X32.385 Y-57.302
X32.362 Y-57.27
X32.329 Y-57.246
X32.291 Y-57.234
X32.25 Y-57.235
X32.212 Y-57.248
G2 X28.468 Y-56.694 I-1.5 J2.798
G1 X22.129 Y-50.355
G3 X19.101 Y-51.167 I-1.28 J-1.28
G1 X16.243 Y-61.834
G2 X0.395 Y-62.831 I-8.092 J2.168
X-0.277 Y-61.089 I44.605 J18.199
G1 Z1.5
G2 X-3.004 Y-48.685 I45.277 J16.457
G1 Z1 F50
G2 X6.419 Y-15.781 I48.004 J4.054 F2000
G1 Z1.5
G2 X15.299 Y-6.701 I38.581 J-28.851
G1 Z1 F50
X15.471 Y-6.568 F2000
G2 X28.697 Y-15.355 I5.135 J-6.619
G1 X25.839 Y-26.022
G3 X28.055 Y-28.239 I1.748 J-0.468
G1 X36.714 Y-25.918
G2 X40.234 Y-27.311 I0.822 J-3.067
G1 X40.26 Y-27.342
X40.295 Y-27.362
X40.334 Y-27.371
X40.374 Y-27.367
X40.411 Y-27.351
X40.44 Y-27.323
X40.46 Y-27.288
X40.468 Y-27.249
G2 X42.819 Y-24.282 I3.173 J-0.101
G1 X51.478 Y-21.962
G3 X52.29 Y-18.935 I-0.468 J1.748
G1 X44.481 Y-11.125
G2 X51.541 Y3.097 I5.923 J5.923
X53.103 Y2.857 I-6.541 J-47.729
G1 Z1.5
G2 X65.231 Y-0.91 I-8.103 J-47.489
G1 Z1 F50
G2 X87.992 Y-22.893 I-20.231 J-43.721 F2000
G1 Z1.5
G2 X92.178 Y-34.883 I-42.992 J-21.738
G1 Z1 F50
G2 X92.729 Y-38.09 I-47.178 J-9.748 F2000
X78.506 Y-45.151 I-8.299 J-1.137
G1 X70.697 Y-37.342
G3 X67.669 Y-38.153 I-1.28 J-1.28
G1 X65.349 Y-46.812
G2 X62.383 Y-49.164 I-3.067 J0.822
G1 X62.343 Y-49.171
X62.308 Y-49.191
X62.281 Y-49.221
X62.264 Y-49.257
X62.26 Y-49.297
X62.269 Y-49.337
X62.29 Y-49.371
X62.32 Y-49.398
G2 X63.713 Y-52.917 I-1.674 J-2.698
G1 X61.393 Y-61.576
G3 X63.609 Y-63.793 I1.748 J-0.468
G1 X74.277 Y-60.935
G2 X83.064 Y-74.161 I2.168 J-8.091
X80.983 Y-76.663 I-38.064 J29.529
G1 Z1.5
G2 X71.362 Y-84.953 I-35.983 J32.032
G1 Z1 F50
G2 X40.537 Y-92.599 I-26.363 J40.322 F2000
G1 Z1.5
G2 X28.157 Y-89.766 I4.463 J47.968
G1 Z1 F50
G2 X26.801 Y-89.237 I16.843 J45.135 F2000
X23.02 Y-86.165 I3.165 J7.756
G3 X22.139 Y-85.993 I-0.526 J-0.355
G1 X21.612 Y-86.348
X21.53 Y-86.404 Z1.008
X21.45 Y-86.458 Z1.031
X21.373 Y-86.509 Z1.069
X21.303 Y-86.557 Z1.121
X21.24 Y-86.599 Z1.186
X21.186 Y-86.635 Z1.262
X21.143 Y-86.665 Z1.347
X21.112 Y-86.686 Z1.439
X21.092 Y-86.699 Z1.536
X21.086 Y-86.703 Z1.635
X21.796 Y-87.756
Z0.635 F50
X21.803 Y-87.752 Z0.536 F2000
X21.822 Y-87.739 Z0.439
X21.853 Y-87.717 Z0.347
X21.897 Y-87.688 Z0.262
X21.95 Y-87.652 Z0.186
X22.013 Y-87.61 Z0.121
X22.084 Y-87.562 Z0.069
X22.16 Y-87.511 Z0.031
X22.24 Y-87.457 Z0.008
X22.323 Y-87.401 Z0
X22.849 Y-87.046
G3 X23.02 Y-86.165 I-0.355 J0.526
G2 X27.797 Y-73.389 I6.945 J4.684
G1 X38.465 Y-70.53
G3 X39.276 Y-67.503 I-0.468 J1.748
G1 X32.937 Y-61.164
G2 X32.384 Y-57.419 I2.245 J2.245
G1 X32.397 Y-57.381
Y-57.341
X32.385 Y-57.302
X32.362 Y-57.27
X32.329 Y-57.246
X32.291 Y-57.234
X32.25 Y-57.235
X32.212 Y-57.248
G2 X28.468 Y-56.694 I-1.5 J2.798
G1 X22.129 Y-50.355
G3 X19.101 Y-51.167 I-1.28 J-1.28
G1 X16.243 Y-61.834
G2 X0.395 Y-62.831 I-8.092 J2.168
X-0.277 Y-61.089 I44.605 J18.199
G1 Z1.5
G2 X-3.004 Y-48.685 I45.277 J16.457
G1 Z0 F50
G2 X6.419 Y-15.781 I48.004 J4.054 F2000
G1 Z1.5
G2 X15.299 Y-6.701 I38.581 J-28.851
G1 Z0 F50
X15.471 Y-6.568 F2000
G2 X28.697 Y-15.355 I5.135 J-6.619
G1 X25.839 Y-26.022
G3 X28.055 Y-28.239 I1.748 J-0.468
G1 X36.714 Y-25.918
G2 X40.234 Y-27.311 I0.822 J-3.067
G1 X40.26 Y-27.342
X40.295 Y-27.362
X40.334 Y-27.371
X40.374 Y-27.367
X40.411 Y-27.351
X40.44 Y-27.323
X40.46 Y-27.288
X40.468 Y-27.249
G2 X42.819 Y-24.282 I3.173 J-0.101
G1 X51.478 Y-21.962
G3 X52.29 Y-18.935 I-0.468 J1.748
G1 X44.481 Y-11.125
G2 X51.541 Y3.097 I5.923 J5.923
X53.103 Y2.857 I-6.541 J-47.729
G1 Z1.5
G2 X65.231 Y-0.91 I-8.103 J-47.489
G1 Z0 F50
G2 X87.992 Y-22.893 I-20.231 J-43.721 F2000
G1 Z1.5
G2 X92.178 Y-34.883 I-42.992 J-21.738
G1 Z0 F50
G2 X92.729 Y-38.09 I-47.178 J-9.748 F2000
X78.506 Y-45.151 I-8.299 J-1.137
G1 X70.697 Y-37.342
G3 X67.669 Y-38.153 I-1.28 J-1.28
G1 X65.349 Y-46.812
G2 X62.383 Y-49.164 I-3.067 J0.822
G1 X62.343 Y-49.171
X62.308 Y-49.191
X62.281 Y-49.221
X62.264 Y-49.257
X62.26 Y-49.297
X62.269 Y-49.337
X62.29 Y-49.371
X62.32 Y-49.398
G2 X63.713 Y-52.917 I-1.674 J-2.698
G1 X61.393 Y-61.576
G3 X63.609 Y-63.793 I1.748 J-0.468
G1 X74.277 Y-60.935
G2 X83.064 Y-74.161 I2.168 J-8.091
X80.983 Y-76.663 I-38.064 J29.529
G1 Z1.5
G2 X71.362 Y-84.953 I-35.983 J32.032
G1 Z0 F50
G2 X40.537 Y-92.599 I-26.363 J40.322 F2000
G1 Z1.5
G2 X28.157 Y-89.766 I4.463 J47.968
G1 Z0 F50
G2 X26.801 Y-89.237 I16.843 J45.135 F2000
X23.02 Y-86.165 I3.165 J7.756
G3 X22.139 Y-85.993 I-0.526 J-0.355
G1 X21.612 Y-86.348
X21.53 Y-86.404 Z0.008
X21.45 Y-86.458 Z0.031
X21.373 Y-86.509 Z0.069
X21.303 Y-86.557 Z0.121
X21.24 Y-86.599 Z0.186
X21.186 Y-86.635 Z0.262
X21.143 Y-86.665 Z0.347
X21.112 Y-86.686 Z0.439
X21.092 Y-86.699 Z0.536
X21.086 Y-86.703 Z0.635
Z23
M5
M30
