(trinode_slope1)
(T5 D=6.35 CR=0 - ZMIN=0.326 - flat end mill)
G90 G94
G17
G21
(-Attention- Property Safe Retracts is set to Clearance Height.)
(Ensure the clearance height will clear the part and or fixtures.)
(Raise the Z-axis to a safe height before starting the program.)
(When using Fusion 360 for Personal Use, the feedrate of)
(rapid moves is reduced to match the feedrate of cutting)
(moves, which can increase machining time. Unrestricted rapid)
(moves are available with a Fusion 360 Subscription.)

(Parallel3)
T5 M6
S5000 M3
G17 G90 G94
G54
G0 X42.649 Y-26.431
Z23
G1 Z21 F100
Z18.967 F50
X42.647 Y-26.426 Z18.882 F100
X42.643 Y-26.409 Z18.798
X42.602 Y-26.255 Z18.221
X42.555 Y-26.08 Z17.454
X42.507 Y-25.902 Z16.541
X42.459 Y-25.722 Z15.465
X42.411 Y-25.542 Z14.216
X42.364 Y-25.368 Z12.798
X42.319 Y-25.199 Z11.194
X42.276 Y-25.038 Z9.381
X42.237 Y-24.893 Z7.429
X42.202 Y-24.765 Z5.328
X42.173 Y-24.656 Z3.09
X42.17 Y-24.644 Z2.993
X42.163 Y-24.618 Z2.898
X42.152 Y-24.578 Z2.81
X42.138 Y-24.525 Z2.728
X42.121 Y-24.461 Z2.656
X42.101 Y-24.387 Z2.595
X42.079 Y-24.304 Z2.547
X42.055 Y-24.216 Z2.512
X42.03 Y-24.123 Z2.492
X42.005 Y-24.028 Z2.487
X41.98 Y-23.934 Z2.497
X41.955 Y-23.843 Z2.522
X41.932 Y-23.756 Z2.561
X41.911 Y-23.676 Z2.614
X41.892 Y-23.605 Z2.678
X41.875 Y-23.544 Z2.754
X41.862 Y-23.495 Z2.838
X41.853 Y-23.459 Z2.929
X41.847 Y-23.438 Z3.024
X41.845 Y-23.43 Z3.122
Z21
X40.879 Y-29.482
Z18.868 F50
X40.878 Y-29.478 Z18.795 F100
X40.735 Y-28.942 Z13.988
X40.331 Y-27.437 Z0.606
X40.327 Y-27.422 Z0.54
X40.32 Y-27.394 Z0.478
X40.309 Y-27.354 Z0.423
X40.295 Y-27.303 Z0.379
X40.28 Y-27.244 Z0.348
X40.263 Y-27.181 Z0.33
X40.245 Y-27.114 Z0.326
X40.227 Y-27.049 Z0.338
X40.211 Y-26.988 Z0.363
X40.196 Y-26.933 Z0.402
X40.184 Y-26.888 Z0.451
X40.175 Y-26.854 Z0.51
X40.169 Y-26.833 Z0.575
X40.167 Y-26.826 Z0.643
Z18.866
X40.161 Y-26.827 Z18.981
X40.141 Y-26.833 Z19.094
X40.108 Y-26.841 Z19.204
X40.062 Y-26.853 Z19.309
X40.004 Y-26.868 Z19.407
X39.936 Y-26.886 Z19.498
X39.857 Y-26.906 Z19.579
X39.769 Y-26.929 Z19.65
X39.674 Y-26.954 Z19.71
X39.573 Y-26.98 Z19.757
X39.466 Y-27.008 Z19.791
X39.357 Y-27.036 Z19.812
X39.246 Y-27.065 Z19.819
X38.671 Y-27.215
X38.56 Y-27.244 Z19.812
X38.45 Y-27.272 Z19.791
X38.344 Y-27.3 Z19.757
X38.242 Y-27.326 Z19.71
X38.147 Y-27.351 Z19.65
X38.059 Y-27.374 Z19.579
X37.981 Y-27.394 Z19.498
X37.912 Y-27.412 Z19.407
X37.854 Y-27.427 Z19.309
X37.809 Y-27.439 Z19.204
X37.776 Y-27.448 Z19.094
X37.756 Y-27.453 Z18.981
X37.749 Y-27.455 Z18.866
X37.747 Y-27.447 Z18.798
X37.71 Y-27.309 Z18.145
X37.662 Y-27.13 Z17.171
X37.614 Y-26.95 Z16.033
X37.566 Y-26.772 Z14.724
X37.52 Y-26.599 Z13.237
X37.475 Y-26.434 Z11.568
X37.434 Y-26.28 Z9.728
X37.397 Y-26.14 Z7.723
X37.364 Y-26.019 Z5.583
X37.337 Y-25.919 Z3.304
X37.334 Y-25.907 Z3.207
X37.327 Y-25.881 Z3.112
X37.317 Y-25.841 Z3.023
X37.302 Y-25.788 Z2.941
X37.285 Y-25.724 Z2.869
X37.265 Y-25.65 Z2.808
X37.243 Y-25.568 Z2.759
X37.22 Y-25.479 Z2.724
X37.195 Y-25.386 Z2.704
X37.169 Y-25.292 Z2.698
X37.144 Y-25.197 Z2.708
X37.119 Y-25.106 Z2.733
X37.096 Y-25.019 Z2.772
X37.075 Y-24.939 Z2.824
X37.056 Y-24.867 Z2.889
X37.039 Y-24.806 Z2.965
X37.026 Y-24.757 Z3.049
X37.017 Y-24.722 Z3.14
X37.011 Y-24.7 Z3.235
X37.009 Y-24.692 Z3.333
Z23
M5
M30
